;FLAVOR:UltiGCode
;TIME:2294
;MATERIAL:3660
;MATERIAL2:0
;NOZZLE_DIAMETER:0.4
;Generated with Cura_SteamEngine 2.6.1

;LAYER_COUNT:139
;LAYER:0
M107
G0 F3600 X127.764 Y96.926 Z0.3
;TYPE:SKIRT
G1 F1800 X128.292 Y96.338 E0.09483
G1 X128.876 Y95.807 E0.18955
G1 X129.511 Y95.338 E0.28428
G1 X130.191 Y94.936 E0.37907
G1 X130.907 Y94.604 E0.47378
G1 X131.355 Y94.439 E0.53107
G1 X131.517 Y94.385 E0.55156
G1 X132.278 Y94.174 E0.64633
G1 X133.057 Y94.04 E0.74118
G1 X133.98 Y93.985 E0.85214
G1 X136.18 Y93.984 E1.11614
G1 X136.969 Y94.024 E1.21094
G1 X137.75 Y94.143 E1.30574
G1 X138.514 Y94.34 E1.40042
G1 X139.44 Y94.696 E1.51947
G1 X139.612 Y94.775 E1.54218
G1 X140.312 Y95.14 E1.63691
G1 X140.971 Y95.575 E1.73167
G1 X141.583 Y96.074 E1.82643
G1 X142.142 Y96.632 E1.92121
G1 X142.635 Y97.236 E2.01477
G1 X142.803 Y97.464 E2.04875
G1 X143.239 Y98.123 E2.14357
G1 X143.606 Y98.822 E2.23831
G1 X143.9 Y99.555 E2.33308
G1 X144.146 Y100.436 E2.44285
G1 X144.377 Y101.5 E2.5735
G1 X144.506 Y102.279 E2.66825
G1 X144.555 Y103.141 E2.77186
G1 X144.574 Y113.298 E3.9907
G1 X144.579 Y113.324 E3.99388
G1 X144.657 Y114.492 E4.13435
G1 X144.609 Y120.183 E4.8173
G1 X144.562 Y120.971 E4.91203
G1 X144.449 Y121.688 E4.99913
G1 X144.34 Y122.218 E5.06406
G1 X144.142 Y122.983 E5.15888
G1 X143.868 Y123.723 E5.25358
G1 X143.652 Y124.184 E5.31467
G1 X143.391 Y124.697 E5.38374
G1 X142.998 Y125.382 E5.4785
G1 X142.537 Y126.023 E5.57325
G1 X142.014 Y126.615 E5.66804
G1 X141.434 Y127.151 E5.76281
G1 X140.803 Y127.625 E5.85752
G1 X140.127 Y128.033 E5.95227
G1 X139.07 Y128.503 E6.09108
G1 X138.897 Y128.565 E6.11313
G1 X138.142 Y128.793 E6.20777
G1 X137.366 Y128.944 E6.30264
G1 X136.27 Y129.022 E6.43449
G1 X134.071 Y129.023 E6.69837
G1 X133.282 Y128.983 E6.79317
G1 X132.501 Y128.864 E6.88798
G1 X131.737 Y128.667 E6.98266
G1 X130.811 Y128.311 E7.1017
G1 X130.639 Y128.232 E7.12442
G1 X129.939 Y127.867 E7.21915
G1 X129.28 Y127.432 E7.31391
G1 X128.668 Y126.933 E7.40866
G1 X128.109 Y126.375 E7.50344
G1 X127.625 Y125.784 E7.59511
G1 X127.457 Y125.557 E7.629
G1 X127.02 Y124.899 E7.72379
G1 X126.652 Y124.201 E7.81848
G1 X126.356 Y123.469 E7.91323
G1 X126.104 Y122.57 E8.02526
G1 X125.873 Y121.505 E8.15604
G1 X125.745 Y120.726 E8.25077
G1 X125.696 Y119.882 E8.35222
G1 X125.679 Y115.594 E8.86678
G1 X125.603 Y114.835 E8.95832
G1 X125.594 Y114.423 E9.00777
G1 X125.642 Y102.858 E10.39558
G1 X125.685 Y102.069 E10.4904
G1 X125.802 Y101.316 E10.58185
G1 X125.911 Y100.787 E10.64666
G1 X126.11 Y100.023 E10.7414
G1 X126.384 Y99.282 E10.8362
G1 X126.628 Y98.767 E10.90459
G1 X126.899 Y98.245 E10.97517
G1 X127.298 Y97.563 E11.06999
G1 X127.764 Y96.926 E11.1647
G0 F3600 X128.1 Y97.147
G1 F1800 X128.618 Y96.578 E11.25703
G1 X129.192 Y96.066 E11.34933
G1 X129.816 Y95.617 E11.44158
G1 X130.484 Y95.235 E11.53392
G1 X131.482 Y94.819 E11.66367
G1 X131.644 Y94.765 E11.68416
G1 X132.385 Y94.56 E11.77642
G1 X133.144 Y94.433 E11.86877
G1 X133.981 Y94.385 E11.96937
G1 X136.181 Y94.384 E12.23337
G1 X136.949 Y94.424 E12.32566
G1 X137.709 Y94.543 E12.41797
G1 X138.452 Y94.74 E12.51021
G1 X139.273 Y95.059 E12.61591
G1 X139.445 Y95.138 E12.63862
G1 X140.126 Y95.495 E12.73089
G1 X140.767 Y95.921 E12.82325
G1 X141.36 Y96.411 E12.91556
G1 X141.898 Y96.96 E13.0078
G1 X142.313 Y97.473 E13.08698
G1 X142.481 Y97.701 E13.12096
G1 X142.905 Y98.343 E13.21329
G1 X143.259 Y99.026 E13.3056
G1 X143.541 Y99.742 E13.39795
G1 X143.756 Y100.521 E13.49492
G1 X143.987 Y101.585 E13.62558
G1 X144.11 Y102.344 E13.71784
G1 X144.155 Y103.141 E13.81364
G1 X144.174 Y113.375 E15.04172
G1 X144.241 Y113.937 E15.10964
G1 X144.257 Y114.488 E15.17578
G1 X144.209 Y120.179 E15.85873
G1 X144.162 Y120.947 E15.95106
G1 X144.057 Y121.608 E16.03137
G1 X143.948 Y122.138 E16.09631
G1 X143.754 Y122.882 E16.18857
G1 X143.484 Y123.602 E16.28085
G1 X143.295 Y124.003 E16.33404
G1 X143.034 Y124.516 E16.40311
G1 X142.651 Y125.182 E16.49531
G1 X142.199 Y125.805 E16.58767
G1 X141.686 Y126.378 E16.67996
G1 X141.116 Y126.894 E16.77222
G1 X140.496 Y127.349 E16.86451
G1 X139.831 Y127.737 E16.9569
G1 X138.936 Y128.126 E17.074
G1 X138.763 Y128.188 E17.09606
G1 X138.026 Y128.41 E17.18842
G1 X137.27 Y128.554 E17.28077
G1 X136.269 Y128.622 E17.40117
G1 X134.07 Y128.623 E17.66505
G1 X133.302 Y128.583 E17.75734
G1 X132.542 Y128.464 E17.84965
G1 X131.799 Y128.267 E17.94189
G1 X130.978 Y127.948 E18.04758
G1 X130.806 Y127.869 E18.0703
G1 X130.125 Y127.512 E18.16256
G1 X129.484 Y127.086 E18.25492
G1 X128.891 Y126.596 E18.34723
G1 X128.353 Y126.047 E18.43947
G1 X127.947 Y125.546 E18.51685
G1 X127.779 Y125.319 E18.55074
G1 X127.354 Y124.678 E18.64303
G1 X126.998 Y123.996 E18.73535
G1 X126.715 Y123.281 E18.82763
G1 X126.495 Y122.486 E18.92662
G1 X126.264 Y121.421 E19.05739
G1 X126.14 Y120.661 E19.14979
G1 X126.096 Y119.881 E19.24354
G1 X126.079 Y115.514 E19.76759
G1 X126.038 Y115.263 E19.7981
G1 X125.994 Y114.424 E19.89892
G1 X126.042 Y102.859 E21.28673
G1 X126.085 Y102.091 E21.37904
G1 X126.194 Y101.397 E21.46334
G1 X126.303 Y100.868 E21.52815
G1 X126.497 Y100.123 E21.62054
G1 X126.768 Y99.403 E21.71285
G1 X126.983 Y98.951 E21.77292
G1 X127.254 Y98.429 E21.84349
G1 X127.644 Y97.766 E21.9358
G1 X128.1 Y97.147 E22.02806
G0 F3600 X128.435 Y97.369
G1 F1800 X128.943 Y96.819 E22.1179
G1 X129.507 Y96.327 E22.20772
G1 X130.119 Y95.898 E22.2974
G1 X130.774 Y95.537 E22.38715
G1 X131.608 Y95.198 E22.49518
G1 X131.77 Y95.144 E22.51567
G1 X132.492 Y94.946 E22.60551
G1 X133.23 Y94.826 E22.69523
G1 X133.981 Y94.785 E22.78549
G1 X136.181 Y94.784 E23.04949
G1 X136.928 Y94.824 E23.13926
G1 X137.666 Y94.943 E23.22896
G1 X138.388 Y95.14 E23.31877
G1 X139.106 Y95.423 E23.41138
G1 X139.278 Y95.502 E23.43409
G1 X139.94 Y95.85 E23.52384
G1 X140.561 Y96.267 E23.6136
G1 X141.134 Y96.747 E23.7033
G1 X141.653 Y97.287 E23.79318
G1 X141.991 Y97.711 E23.85824
G1 X142.159 Y97.939 E23.89223
G1 X142.57 Y98.564 E23.98199
G1 X142.912 Y99.229 E24.07173
G1 X143.181 Y99.927 E24.16149
G1 X143.365 Y100.606 E24.24591
G1 X143.596 Y101.67 E24.37657
G1 X143.715 Y102.408 E24.46627
G1 X143.755 Y103.142 E24.55448
G1 X143.774 Y113.421 E25.78796
G1 X143.828 Y113.79 E25.83271
G1 X143.857 Y114.485 E25.91619
G1 X143.809 Y120.176 E26.59913
G1 X143.762 Y120.923 E26.68895
G1 X143.665 Y121.527 E26.76236
G1 X143.556 Y122.057 E26.82729
G1 X143.367 Y122.781 E26.91708
G1 X143.101 Y123.48 E27.00683
G1 X142.939 Y123.821 E27.05213
G1 X142.678 Y124.334 E27.1212
G1 X142.304 Y124.982 E27.21098
G1 X141.862 Y125.586 E27.3008
G1 X141.359 Y126.139 E27.3905
G1 X140.8 Y126.636 E27.48026
G1 X140.19 Y127.07 E27.5701
G1 X139.538 Y127.437 E27.65988
G1 X138.801 Y127.75 E27.75597
G1 X138.628 Y127.812 E27.77802
G1 X137.911 Y128.026 E27.86781
G1 X137.175 Y128.163 E27.95765
G1 X136.269 Y128.222 E28.0666
G1 X134.07 Y128.223 E28.33048
G1 X133.323 Y128.183 E28.42024
G1 X132.585 Y128.064 E28.50995
G1 X131.863 Y127.867 E28.59976
G1 X131.145 Y127.584 E28.69237
G1 X130.973 Y127.505 E28.71508
G1 X130.311 Y127.157 E28.80483
G1 X129.69 Y126.74 E28.89459
G1 X129.117 Y126.26 E28.98429
G1 X128.598 Y125.72 E29.07416
G1 X128.268 Y125.308 E29.13751
G1 X128.1 Y125.081 E29.1714
G1 X127.688 Y124.457 E29.26113
G1 X127.345 Y123.792 E29.35092
G1 X127.074 Y123.095 E29.44066
G1 X126.886 Y122.401 E29.52694
G1 X126.655 Y121.336 E29.65771
G1 X126.536 Y120.597 E29.74753
G1 X126.496 Y119.879 E29.83382
G1 X126.479 Y115.497 E30.35967
G1 X126.409 Y114.913 E30.43025
G1 X126.394 Y114.426 E30.48872
G1 X126.442 Y102.861 E31.87653
G1 X126.485 Y102.114 E31.96632
G1 X126.586 Y101.477 E32.04371
G1 X126.695 Y100.948 E32.10853
G1 X126.885 Y100.225 E32.19823
G1 X127.151 Y99.526 E32.28798
G1 X127.338 Y99.136 E32.33988
G1 X127.609 Y98.614 E32.41046
G1 X127.989 Y97.969 E32.5003
G1 X128.435 Y97.369 E32.59001
G0 F3600 X128.77 Y97.592
G1 F1800 X129.267 Y97.062 E32.6772
G1 X129.82 Y96.591 E32.76436
G1 X130.421 Y96.183 E32.85153
G1 X131.063 Y95.843 E32.93871
G1 X131.735 Y95.578 E33.02539
G1 X131.897 Y95.524 E33.04588
G1 X132.598 Y95.332 E33.1331
G1 X133.315 Y95.219 E33.22021
G1 X133.981 Y95.185 E33.30023
G1 X136.181 Y95.184 E33.56423
G1 X136.906 Y95.224 E33.65136
G1 X137.623 Y95.343 E33.73858
G1 X138.322 Y95.54 E33.82573
G1 X138.939 Y95.786 E33.90543
G1 X139.111 Y95.865 E33.92815
G1 X139.753 Y96.204 E34.01527
G1 X140.354 Y96.612 E34.10244
G1 X140.907 Y97.083 E34.1896
G1 X141.405 Y97.612 E34.27679
G1 X141.669 Y97.948 E34.32806
G1 X141.837 Y98.176 E34.36205
G1 X142.235 Y98.783 E34.44915
G1 X142.564 Y99.431 E34.53636
G1 X142.82 Y100.111 E34.62355
G1 X142.974 Y100.691 E34.69556
G1 X143.205 Y101.755 E34.82622
G1 X143.32 Y102.472 E34.91336
G1 X143.355 Y103.143 E34.99399
G1 X143.374 Y113.441 E36.22975
G1 X143.413 Y113.669 E36.25751
G1 X143.457 Y114.482 E36.35521
G1 X143.409 Y120.173 E37.03815
G1 X143.363 Y120.898 E37.12533
G1 X143.274 Y121.447 E37.19207
G1 X143.165 Y121.977 E37.257
G1 X142.979 Y122.679 E37.34414
G1 X142.582 Y123.64 E37.46892
G1 X142.321 Y124.153 E37.53799
G1 X141.957 Y124.781 E37.62509
G1 X141.526 Y125.366 E37.71229
G1 X141.033 Y125.899 E37.79941
G1 X140.484 Y126.375 E37.88661
G1 X139.887 Y126.788 E37.97372
G1 X139.247 Y127.133 E38.06097
G1 X138.666 Y127.373 E38.1364
G1 X138.493 Y127.435 E38.15845
G1 X137.796 Y127.642 E38.2457
G1 X137.082 Y127.771 E38.33277
G1 X136.269 Y127.822 E38.43052
G1 X134.07 Y127.823 E38.6944
G1 X133.345 Y127.783 E38.78153
G1 X132.628 Y127.664 E38.86875
G1 X131.929 Y127.467 E38.9559
G1 X131.312 Y127.221 E39.03561
G1 X131.14 Y127.142 E39.05832
G1 X130.498 Y126.803 E39.14544
G1 X129.897 Y126.395 E39.23261
G1 X129.344 Y125.924 E39.31978
G1 X128.846 Y125.395 E39.40696
G1 X128.59 Y125.07 E39.45661
G1 X128.422 Y124.843 E39.4905
G1 X128.023 Y124.237 E39.57756
G1 X127.692 Y123.59 E39.66477
G1 X127.435 Y122.91 E39.75201
G1 X127.277 Y122.316 E39.82576
G1 X127.046 Y121.251 E39.95654
G1 X126.931 Y120.534 E40.04368
G1 X126.896 Y119.878 E40.12251
G1 X126.879 Y115.463 E40.65231
G1 X126.848 Y115.296 E40.67269
G1 X126.794 Y114.428 E40.77706
G1 X126.842 Y102.863 E42.16487
G1 X126.885 Y102.138 E42.25202
G1 X126.978 Y101.558 E42.32251
G1 X127.087 Y101.029 E42.38732
G1 X127.272 Y100.327 E42.47444
G1 X127.534 Y99.649 E42.56166
G1 X127.693 Y99.32 E42.60551
G1 X127.964 Y98.798 E42.67609
G1 X128.334 Y98.173 E42.76325
G1 X128.77 Y97.592 E42.85041
G0 F3600 X129.104 Y97.816
G1 F1800 X129.591 Y97.307 E42.93495
G1 X130.132 Y96.857 E43.01939
G1 X130.72 Y96.471 E43.1038
G1 X131.349 Y96.154 E43.18832
G1 X131.861 Y95.957 E43.25415
G1 X132.023 Y95.903 E43.27464
G1 X132.703 Y95.719 E43.35918
G1 X133.399 Y95.613 E43.44366
G1 X133.981 Y95.585 E43.51358
G1 X136.181 Y95.584 E43.77758
G1 X136.884 Y95.624 E43.86208
G1 X137.578 Y95.743 E43.94657
G1 X138.254 Y95.94 E44.03107
G1 X138.772 Y96.15 E44.09814
G1 X138.944 Y96.229 E44.12085
G1 X139.566 Y96.559 E44.20535
G1 X140.146 Y96.957 E44.28976
G1 X140.678 Y97.418 E44.37423
G1 X141.347 Y98.185 E44.49637
G1 X141.515 Y98.413 E44.53035
G1 X141.9 Y99.003 E44.61489
G1 X142.216 Y99.632 E44.69936
G1 X142.458 Y100.293 E44.78383
G1 X142.583 Y100.776 E44.8437
G1 X142.814 Y101.84 E44.97435
G1 X142.924 Y102.535 E45.05879
G1 X142.955 Y103.143 E45.13185
G1 X142.974 Y113.455 E46.36929
G1 X142.998 Y113.576 E46.38409
G1 X143.057 Y114.478 E46.49256
G1 X143.009 Y120.169 E47.17551
G1 X142.963 Y120.872 E47.26005
G1 X142.882 Y121.366 E47.32012
G1 X142.773 Y121.896 E47.38505
G1 X142.592 Y122.576 E47.46949
G1 X142.226 Y123.458 E47.58408
G1 X141.965 Y123.971 E47.65315
G1 X141.611 Y124.58 E47.73768
G1 X141.19 Y125.144 E47.82214
G1 X140.707 Y125.657 E47.90669
G1 X140.17 Y126.112 E47.99115
G1 X139.585 Y126.503 E48.07559
G1 X138.959 Y126.825 E48.16006
G1 X138.531 Y126.997 E48.21541
G1 X138.358 Y127.059 E48.23747
G1 X137.683 Y127.258 E48.32191
G1 X136.989 Y127.38 E48.40647
G1 X136.269 Y127.422 E48.49302
G1 X134.07 Y127.423 E48.7569
G1 X133.367 Y127.383 E48.84139
G1 X132.673 Y127.264 E48.92589
G1 X131.997 Y127.067 E49.01038
G1 X131.479 Y126.857 E49.07746
G1 X131.307 Y126.778 E49.10017
G1 X130.685 Y126.448 E49.18467
G1 X130.105 Y126.05 E49.26908
G1 X129.573 Y125.589 E49.35355
G1 X128.911 Y124.832 E49.47423
G1 X128.743 Y124.605 E49.50811
G1 X128.357 Y124.017 E49.59252
G1 X128.041 Y123.388 E49.67699
G1 X127.797 Y122.727 E49.76154
G1 X127.668 Y122.231 E49.82304
G1 X127.437 Y121.166 E49.95381
G1 X127.327 Y120.471 E50.03825
G1 X127.296 Y119.876 E50.10975
G1 X127.279 Y115.425 E50.64387
G1 X127.213 Y114.943 E50.70225
G1 X127.194 Y114.429 E50.76397
G1 X127.242 Y102.864 E52.15179
G1 X127.285 Y102.162 E52.23618
G1 X127.37 Y101.639 E52.29977
G1 X127.479 Y101.11 E52.36458
G1 X127.66 Y100.429 E52.44914
G1 X128.048 Y99.504 E52.56951
G1 X128.319 Y98.982 E52.64009
G1 X128.679 Y98.377 E52.72457
G1 X129.104 Y97.816 E52.80902
G0 F3600 X129.438 Y98.042
G1 F1800 X129.913 Y97.554 E52.89074
G1 X130.442 Y97.126 E52.9724
G1 X131.018 Y96.762 E53.05416
G1 X131.632 Y96.468 E53.13586
G1 X131.988 Y96.337 E53.18138
G1 X132.15 Y96.283 E53.20187
G1 X132.807 Y96.106 E53.28352
G1 X133.481 Y96.007 E53.36527
G1 X133.981 Y95.985 E53.42532
G1 X136.181 Y95.984 E53.68932
G1 X136.861 Y96.024 E53.77107
G1 X137.531 Y96.143 E53.85272
G1 X138.183 Y96.339 E53.93442
G1 X138.605 Y96.513 E53.9892
G1 X138.777 Y96.592 E54.01191
G1 X139.378 Y96.912 E54.09362
G1 X139.937 Y97.301 E54.17534
G1 X140.447 Y97.752 E54.25704
G1 X141.025 Y98.422 E54.36322
G1 X141.193 Y98.65 E54.39721
G1 X141.564 Y99.221 E54.47892
G1 X141.866 Y99.832 E54.56071
G1 X142.094 Y100.473 E54.64235
G1 X142.192 Y100.86 E54.69025
G1 X142.423 Y101.924 E54.82091
G1 X142.528 Y102.597 E54.90265
G1 X142.555 Y103.144 E54.96837
G1 X142.574 Y113.465 E56.20689
G1 X142.584 Y113.509 E56.2123
G1 X142.657 Y114.475 E56.32855
G1 X142.609 Y120.166 E57.0115
G1 X142.563 Y120.845 E57.09316
G1 X142.49 Y121.285 E57.14669
G1 X142.381 Y121.815 E57.21162
G1 X142.205 Y122.473 E57.29335
G1 X141.869 Y123.277 E57.39792
G1 X141.608 Y123.79 E57.46699
G1 X141.265 Y124.378 E57.54868
G1 X140.854 Y124.921 E57.6304
G1 X140.383 Y125.413 E57.71213
G1 X139.858 Y125.845 E57.79372
G1 X139.285 Y126.214 E57.8755
G1 X138.396 Y126.62 E57.99278
G1 X138.223 Y126.682 E58.01483
G1 X137.569 Y126.874 E58.09662
G1 X136.898 Y126.987 E58.17828
G1 X136.269 Y127.022 E58.25387
G1 X134.07 Y127.023 E58.51775
G1 X133.39 Y126.983 E58.5995
G1 X132.72 Y126.864 E58.68115
G1 X132.068 Y126.668 E58.76285
G1 X131.646 Y126.494 E58.81763
G1 X131.474 Y126.415 E58.84034
G1 X130.873 Y126.095 E58.92205
G1 X130.314 Y125.706 E59.00377
G1 X129.804 Y125.255 E59.08547
G1 X129.233 Y124.594 E59.19029
G1 X129.065 Y124.367 E59.22417
G1 X128.693 Y123.797 E59.30585
G1 X128.39 Y123.187 E59.38758
G1 X128.161 Y122.546 E59.46927
G1 X128.059 Y122.146 E59.5188
G1 X127.828 Y121.081 E59.64957
G1 X127.723 Y120.409 E59.73119
G1 X127.696 Y119.875 E59.79535
G1 X127.679 Y115.403 E60.332
G1 X127.653 Y115.277 E60.34744
G1 X127.594 Y114.431 E60.4492
G1 X127.642 Y102.866 E61.83702
G1 X127.685 Y102.186 E61.91878
G1 X127.761 Y101.72 E61.97544
G1 X127.87 Y101.191 E62.04025
G1 X128.047 Y100.533 E62.12202
G1 X128.403 Y99.689 E62.23194
G1 X128.674 Y99.167 E62.30252
G1 X129.023 Y98.582 E62.38426
G1 X129.438 Y98.042 E62.46599
G0 F3600 X129.771 Y98.269
G1 F1800 X130.234 Y97.803 E62.54481
G1 X130.751 Y97.397 E62.6237
G1 X131.313 Y97.057 E62.70252
G1 X132.114 Y96.716 E62.80699
G1 X132.276 Y96.662 E62.82748
G1 X132.911 Y96.493 E62.90633
G1 X133.562 Y96.402 E62.98521
G1 X133.982 Y96.385 E63.03565
G1 X136.182 Y96.384 E63.29965
G1 X136.837 Y96.424 E63.3784
G1 X137.483 Y96.543 E63.45722
G1 X138.11 Y96.739 E63.53605
G1 X138.438 Y96.877 E63.57875
G1 X138.61 Y96.956 E63.60147
G1 X139.189 Y97.266 E63.68028
G1 X139.726 Y97.644 E63.75908
G1 X140.214 Y98.084 E63.83793
G1 X140.703 Y98.66 E63.9286
G1 X140.871 Y98.888 E63.96259
G1 X141.228 Y99.439 E64.04137
G1 X141.515 Y100.03 E64.12021
G1 X141.801 Y100.945 E64.23525
G1 X142.032 Y102.009 E64.36591
G1 X142.132 Y102.659 E64.44482
G1 X142.155 Y103.145 E64.50321
G1 X142.174 Y113.49 E65.74461
G1 X142.248 Y114.123 E65.82109
G1 X142.257 Y114.472 E65.86298
G1 X142.209 Y120.163 E66.54593
G1 X142.163 Y120.818 E66.62472
G1 X142.098 Y121.205 E66.67181
G1 X141.989 Y121.735 E66.73674
G1 X141.818 Y122.369 E66.81554
