;FLAVOR:UltiGCode
;TIME:4479
;MATERIAL:3980
;MATERIAL2:0
;NOZZLE_DIAMETER:0.4
;Generated with Cura_SteamEngine 2.6.1

;LAYER_COUNT:541
;LAYER:0
M107
G0 F3600 X98.551 Y91.71 Z0.3
;TYPE:SKIRT
G1 F1800 X99.109 Y91.13 E0.09658
G1 X99.838 Y90.447 E0.21646
G1 X100.438 Y89.939 E0.3108
G1 X101.233 Y89.332 E0.43083
G1 X101.891 Y88.881 E0.52655
G1 X102.743 Y88.359 E0.64646
G1 X103.452 Y87.974 E0.74327
G1 X104.355 Y87.542 E0.86339
G1 X105.27 Y87.173 E0.98178
G1 X106.693 Y86.702 E1.16165
G1 X107.454 Y86.492 E1.25639
G1 X107.855 Y86.414 E1.30541
G1 X109.335 Y86.166 E1.48549
G1 X110.328 Y86.065 E1.60526
G1 X111.329 Y86.027 E1.72547
G1 X112.124 Y86.037 E1.82088
G1 X113.122 Y86.101 E1.94088
G1 X114.111 Y86.228 E2.06054
G1 X115.583 Y86.514 E2.24048
G1 X116.536 Y86.763 E2.35868
G1 X117.486 Y87.076 E2.47871
G1 X118.42 Y87.452 E2.59953
G1 X119.772 Y88.101 E2.77949
G1 X120.797 Y88.692 E2.92147
G1 X122.034 Y89.537 E3.10124
G1 X122.825 Y90.156 E3.22177
G1 X123.572 Y90.822 E3.34186
G1 X124.141 Y91.384 E3.43783
G1 X124.815 Y92.122 E3.55777
G1 X125.317 Y92.731 E3.65248
G1 X125.547 Y93.059 E3.70055
G1 X126.655 Y94.723 E3.94045
G1 X127.059 Y95.402 E4.03526
G1 X127.241 Y95.768 E4.08431
G1 X127.661 Y96.675 E4.20425
G1 X127.953 Y97.4 E4.29804
G1 X128.28 Y98.344 E4.41793
G1 X128.548 Y99.316 E4.53892
G1 X128.852 Y100.785 E4.71893
G1 X128.991 Y101.765 E4.83771
G1 X129.068 Y102.762 E4.95771
G1 X129.091 Y103.346 E5.02784
G1 X129.112 Y112.93 E6.17792
G1 X129.217 Y113.692 E6.27023
G1 X129.246 Y114.432 E6.3591
G1 X129.194 Y120.351 E7.0694
G1 X129.147 Y121.139 E7.16413
G1 X129.069 Y121.671 E7.22865
G1 X128.798 Y123.169 E7.41133
G1 X128.559 Y124.136 E7.53086
G1 X128.252 Y125.105 E7.65284
G1 X127.975 Y125.845 E7.74766
G1 X127.572 Y126.777 E7.86951
G1 X127.216 Y127.497 E7.96589
G1 X126.719 Y128.383 E8.08779
G1 X126.299 Y129.05 E8.18238
G1 X125.716 Y129.88 E8.3041
G1 X125.218 Y130.516 E8.40103
G1 X124.55 Y131.284 E8.52317
G1 X123.859 Y131.984 E8.64121
G1 X122.724 Y132.997 E8.82376
G1 X121.938 Y133.613 E8.9436
G1 X121.1 Y134.187 E9.06549
G1 X120.415 Y134.606 E9.16184
G1 X119.522 Y135.091 E9.28379
G1 X118.806 Y135.434 E9.37906
G1 X117.87 Y135.825 E9.50079
G1 X116.93 Y136.149 E9.6201
G1 X115.46 Y136.553 E9.80304
G1 X114.484 Y136.755 E9.92264
G1 X113.479 Y136.897 E10.04444
G1 X112.687 Y136.968 E10.13986
G1 X111.67 Y137.007 E10.26199
G1 X110.872 Y136.997 E10.35776
G1 X109.859 Y136.932 E10.47957
G1 X109.074 Y136.842 E10.57438
G1 X108.681 Y136.766 E10.62242
G1 X106.7 Y136.33 E10.86583
G1 X105.939 Y136.121 E10.96053
G1 X105.552 Y135.982 E11.00987
G1 X104.605 Y135.614 E11.13179
G1 X103.7 Y135.195 E11.25147
G1 X102.361 Y134.466 E11.43442
G1 X101.688 Y134.053 E11.52917
G1 X101.364 Y133.819 E11.57713
G1 X100.154 Y132.897 E11.75968
G1 X99.404 Y132.247 E11.87878
G1 X98.68 Y131.533 E12.0008
G1 X98.132 Y130.933 E12.09831
G1 X97.489 Y130.151 E12.2198
G1 X97.025 Y129.525 E12.3133
G1 X96.46 Y128.678 E12.43548
G1 X96.054 Y127.997 E12.53062
G1 X95.579 Y127.099 E12.65253
G1 X95.238 Y126.363 E12.74987
G1 X94.859 Y125.421 E12.87172
G1 X94.549 Y124.484 E12.99015
G1 X94.164 Y123.012 E13.17273
G1 X94.003 Y122.239 E13.26748
G1 X93.95 Y121.826 E13.31745
G1 X93.796 Y120.31 E13.5003
G1 X93.756 Y119.528 E13.59427
G1 X93.752 Y114.369 E14.21335
G1 X93.791 Y113.58 E14.30814
G1 X93.91 Y112.8 E14.40283
G1 X93.915 Y112.779 E14.40542
G1 X93.955 Y102.587 E15.62847
G1 X93.998 Y101.798 E15.72329
G1 X94.117 Y101.036 E15.81583
G1 X94.522 Y99.079 E16.05565
G1 X94.721 Y98.315 E16.15039
G1 X94.926 Y97.743 E16.2233
G1 X95.487 Y96.352 E16.40329
G1 X95.916 Y95.457 E16.52239
G1 X96.405 Y94.584 E16.64246
G1 X96.832 Y93.905 E16.73872
G1 X97.408 Y93.087 E16.85877
G1 X97.895 Y92.466 E16.95347
G1 X98.551 Y91.71 E17.07358
G0 F3600 X98.853 Y91.972
G1 F1800 X99.383 Y91.422 E17.16524
G1 X100.112 Y90.739 E17.28512
G1 X100.68 Y90.257 E17.37451
G1 X101.475 Y89.65 E17.49454
G1 X102.1 Y89.222 E17.58544
G1 X102.952 Y88.7 E17.70534
G1 X103.624 Y88.335 E17.79711
G1 X104.527 Y87.903 E17.91723
G1 X105.396 Y87.553 E18.02965
G1 X106.819 Y87.082 E18.20952
G1 X107.921 Y86.809 E18.34576
G1 X109.401 Y86.561 E18.52584
G1 X110.343 Y86.464 E18.63947
G1 X111.344 Y86.426 E18.75968
G1 X112.099 Y86.436 E18.85029
G1 X113.097 Y86.5 E18.9703
G1 X114.034 Y86.621 E19.08367
G1 X115.506 Y86.907 E19.26361
G1 X116.411 Y87.143 E19.37584
G1 X117.361 Y87.456 E19.49587
G1 X118.247 Y87.813 E19.6105
G1 X119.599 Y88.462 E19.79046
G1 X120.571 Y89.023 E19.92514
G1 X121.808 Y89.868 E20.1049
G1 X122.559 Y90.455 E20.21929
G1 X123.306 Y91.121 E20.33938
G1 X123.845 Y91.654 E20.43034
G1 X124.519 Y92.392 E20.55028
G1 X125.214 Y93.281 E20.68569
G1 X126.322 Y94.945 E20.92559
G1 X126.878 Y95.937 E21.06205
G1 X127.298 Y96.844 E21.18199
G1 X127.575 Y97.531 E21.27088
G1 X127.902 Y98.475 E21.39077
G1 X128.156 Y99.397 E21.50553
G1 X128.46 Y100.866 E21.68554
G1 X128.592 Y101.796 E21.79826
G1 X128.669 Y102.793 E21.91826
G1 X128.691 Y103.347 E21.98479
G1 X128.712 Y113.014 E23.14483
G1 X128.78 Y113.379 E23.18939
G1 X128.846 Y114.428 E23.31551
G1 X128.794 Y120.347 E24.02582
G1 X128.747 Y121.115 E24.11815
G1 X128.676 Y121.599 E24.17686
G1 X128.405 Y123.097 E24.35953
G1 X128.177 Y124.015 E24.47304
G1 X127.87 Y124.984 E24.59502
G1 X127.608 Y125.686 E24.68493
G1 X127.205 Y126.618 E24.80678
G1 X126.867 Y127.301 E24.89823
G1 X126.37 Y128.187 E25.02013
G1 X125.971 Y128.82 E25.10992
G1 X125.388 Y129.65 E25.23164
G1 X124.916 Y130.253 E25.32353
G1 X124.248 Y131.021 E25.44567
G1 X123.592 Y131.686 E25.55777
G1 X122.457 Y132.699 E25.74032
G1 X121.712 Y133.283 E25.85392
G1 X120.874 Y133.857 E25.97581
G1 X120.224 Y134.255 E26.06727
G1 X119.331 Y134.74 E26.18921
G1 X118.651 Y135.065 E26.27965
G1 X117.715 Y135.456 E26.40138
G1 X116.824 Y135.763 E26.51447
G1 X115.354 Y136.167 E26.69741
G1 X114.428 Y136.359 E26.81089
G1 X113.423 Y136.501 E26.93269
G1 X112.672 Y136.569 E27.02318
G1 X111.655 Y136.608 E27.14531
G1 X110.897 Y136.598 E27.23628
G1 X109.884 Y136.533 E27.35809
G1 X108.767 Y136.375 E27.49346
G1 X106.786 Y135.939 E27.73687
G1 X105.697 Y135.61 E27.87338
G1 X104.75 Y135.242 E27.9953
G1 X103.892 Y134.843 E28.10885
G1 X102.553 Y134.114 E28.2918
G1 X101.606 Y133.501 E28.42717
G1 X100.396 Y132.579 E28.60972
G1 X99.685 Y131.962 E28.72269
G1 X98.961 Y131.248 E28.84471
G1 X98.441 Y130.679 E28.93721
G1 X97.798 Y129.897 E29.0587
G1 X97.358 Y129.303 E29.1474
G1 X96.793 Y128.456 E29.26958
G1 X96.408 Y127.81 E29.35982
G1 X95.933 Y126.912 E29.48173
G1 X95.609 Y126.214 E29.57407
G1 X95.23 Y125.272 E29.69592
G1 X94.936 Y124.382 E29.8084
G1 X94.551 Y122.91 E29.99098
G1 X94.348 Y121.786 E30.12804
G1 X94.194 Y120.27 E30.3109
G1 X94.156 Y119.528 E30.40005
G1 X94.152 Y114.369 E31.01913
G1 X94.191 Y113.601 E31.11141
G1 X94.31 Y112.841 E31.20372
G1 X94.315 Y112.821 E31.2062
G1 X94.355 Y102.588 E32.43417
G1 X94.398 Y101.82 E32.52647
G1 X94.509 Y101.117 E32.61187
G1 X94.914 Y99.16 E32.85169
G1 X95.108 Y98.416 E32.94396
G1 X95.297 Y97.892 E33.0108
G1 X95.858 Y96.501 E33.19079
G1 X96.265 Y95.653 E33.30366
G1 X96.754 Y94.78 E33.42373
G1 X97.16 Y94.136 E33.51509
G1 X97.736 Y93.318 E33.63514
G1 X98.197 Y92.728 E33.72499
G1 X98.853 Y91.972 E33.84511
G0 F3600 X99.155 Y92.234
G1 F1800 X99.656 Y91.714 E33.93176
G1 X100.385 Y91.031 E34.05163
G1 X100.923 Y90.575 E34.13626
G1 X101.718 Y89.968 E34.25629
G1 X102.309 Y89.563 E34.34226
G1 X103.161 Y89.041 E34.46217
G1 X103.797 Y88.695 E34.54905
G1 X104.7 Y88.263 E34.66917
G1 X105.521 Y87.933 E34.77535
G1 X106.944 Y87.462 E34.95522
G1 X107.987 Y87.203 E35.08418
G1 X109.467 Y86.955 E35.26426
G1 X110.358 Y86.864 E35.37174
G1 X111.359 Y86.826 E35.49194
G1 X112.073 Y86.835 E35.57763
G1 X113.071 Y86.899 E35.69764
G1 X113.958 Y87.013 E35.80495
G1 X115.43 Y87.299 E35.9849
G1 X116.285 Y87.523 E36.09096
G1 X117.235 Y87.836 E36.21099
G1 X118.074 Y88.173 E36.31948
G1 X119.426 Y88.822 E36.49945
G1 X120.345 Y89.353 E36.62681
G1 X121.582 Y90.198 E36.80658
G1 X122.292 Y90.753 E36.91472
G1 X123.039 Y91.419 E37.03482
G1 X123.55 Y91.923 E37.12094
G1 X124.224 Y92.661 E37.24088
G1 X124.882 Y93.502 E37.36902
G1 X125.99 Y95.166 E37.60892
G1 X126.515 Y96.105 E37.73801
G1 X126.935 Y97.012 E37.85795
G1 X127.197 Y97.662 E37.94205
G1 X127.524 Y98.606 E38.06194
G1 X127.765 Y99.478 E38.1705
G1 X128.069 Y100.947 E38.35051
G1 X128.193 Y101.827 E38.45716
G1 X128.27 Y102.824 E38.57715
G1 X128.291 Y103.348 E38.64008
G1 X128.312 Y113.018 E39.80049
G1 X128.331 Y113.098 E39.81035
G1 X128.426 Y113.84 E39.90012
G1 X128.446 Y114.424 E39.97024
G1 X128.394 Y120.343 E40.68055
G1 X128.347 Y121.09 E40.77037
G1 X128.282 Y121.528 E40.8235
G1 X128.011 Y123.026 E41.00618
G1 X127.796 Y123.894 E41.11349
G1 X127.489 Y124.863 E41.23546
G1 X127.241 Y125.527 E41.32052
G1 X126.838 Y126.459 E41.44237
G1 X126.518 Y127.106 E41.52898
G1 X126.021 Y127.992 E41.65089
G1 X125.644 Y128.59 E41.73572
G1 X125.061 Y129.42 E41.85744
G1 X124.615 Y129.991 E41.94438
G1 X123.947 Y130.759 E42.06652
G1 X123.326 Y131.387 E42.17251
G1 X122.191 Y132.4 E42.35506
G1 X121.486 Y132.953 E42.46259
G1 X120.648 Y133.527 E42.58447
G1 X120.033 Y133.903 E42.67097
G1 X119.14 Y134.388 E42.79292
G1 X118.497 Y134.696 E42.87847
G1 X117.561 Y135.087 E43.0002
G1 X116.718 Y135.378 E43.10722
G1 X115.248 Y135.782 E43.29016
G1 X114.372 Y135.963 E43.3975
G1 X113.367 Y136.105 E43.5193
G1 X112.656 Y136.169 E43.60496
G1 X111.639 Y136.208 E43.72709
G1 X110.923 Y136.199 E43.81302
G1 X109.91 Y136.134 E43.93483
G1 X108.853 Y135.984 E44.06294
G1 X106.872 Y135.548 E44.30635
G1 X105.842 Y135.237 E44.43546
G1 X104.895 Y134.869 E44.55738
G1 X104.083 Y134.492 E44.66481
G1 X102.744 Y133.763 E44.84776
G1 X101.848 Y133.183 E44.97584
G1 X100.638 Y132.261 E45.15839
G1 X99.966 Y131.677 E45.26522
G1 X99.242 Y130.963 E45.38725
G1 X98.75 Y130.425 E45.47473
G1 X98.107 Y129.643 E45.59622
G1 X97.691 Y129.081 E45.68013
G1 X97.126 Y128.234 E45.8023
G1 X96.761 Y127.623 E45.88771
G1 X96.286 Y126.725 E46.00962
G1 X95.98 Y126.065 E46.09692
G1 X95.601 Y125.123 E46.21876
G1 X95.323 Y124.281 E46.32517
G1 X94.938 Y122.809 E46.50775
G1 X94.746 Y121.745 E46.63749
G1 X94.592 Y120.229 E46.82035
G1 X94.556 Y119.527 E46.9047
G1 X94.552 Y114.368 E47.52378
G1 X94.591 Y113.621 E47.61354
G1 X94.71 Y112.883 E47.70324
G1 X94.715 Y112.864 E47.7056
G1 X94.755 Y102.59 E48.93849
G1 X94.798 Y101.843 E49.02828
G1 X94.9 Y101.198 E49.10664
G1 X95.305 Y99.241 E49.34646
G1 X95.496 Y98.518 E49.43619
G1 X95.668 Y98.042 E49.49693
G1 X96.229 Y96.651 E49.67691
G1 X96.614 Y95.848 E49.78378
G1 X97.103 Y94.975 E49.90385
G1 X97.487 Y94.366 E49.99025
G1 X98.063 Y93.548 E50.1103
G1 X98.499 Y92.99 E50.19528
G1 X99.155 Y92.234 E50.31539
G0 F3600 X99.457 Y92.496
G1 F1800 X99.93 Y92.006 E50.39711
G1 X100.659 Y91.323 E50.51699
G1 X101.166 Y90.893 E50.59677
G1 X101.961 Y90.286 E50.71679
G1 X102.518 Y89.904 E50.79784
G1 X103.37 Y89.382 E50.91775
G1 X103.97 Y89.056 E50.99969
G1 X104.873 Y88.624 E51.11981
G1 X105.647 Y88.312 E51.21995
G1 X107.07 Y87.841 E51.39982
G1 X108.053 Y87.598 E51.52133
G1 X109.533 Y87.35 E51.70141
G1 X110.374 Y87.264 E51.80285
G1 X111.375 Y87.226 E51.92306
G1 X112.047 Y87.235 E52.00371
G1 X113.045 Y87.299 E52.12371
G1 X113.882 Y87.406 E52.22497
G1 X115.354 Y87.692 E52.40492
G1 X116.16 Y87.902 E52.50486
G1 X117.11 Y88.215 E52.62489
G1 X117.901 Y88.534 E52.72724
G1 X119.253 Y89.183 E52.9072
G1 X120.12 Y89.683 E53.02731
G1 X121.357 Y90.528 E53.20707
G1 X122.026 Y91.052 E53.30905
G1 X122.773 Y91.718 E53.42914
G1 X123.254 Y92.193 E53.51026
G1 X123.928 Y92.931 E53.6302
G1 X124.549 Y93.724 E53.75106
G1 X125.657 Y95.388 E53.99096
G1 X126.152 Y96.273 E54.11264
G1 X126.572 Y97.18 E54.23259
G1 X126.819 Y97.793 E54.31189
G1 X127.146 Y98.737 E54.43178
G1 X127.373 Y99.56 E54.53423
G1 X127.677 Y101.029 E54.71424
G1 X127.794 Y101.858 E54.81471
G1 X127.871 Y102.855 E54.9347
G1 X127.891 Y103.349 E54.99403
G1 X127.912 Y113.082 E56.16199
G1 X127.998 Y113.566 E56.22098
G1 X128.046 Y114.421 E56.32375
G1 X127.994 Y120.34 E57.03405
G1 X127.947 Y121.065 E57.12124
G1 X127.889 Y121.457 E57.16879
G1 X127.618 Y122.955 E57.35147
G1 X127.415 Y123.773 E57.4526
G1 X127.108 Y124.742 E57.57458
G1 X126.874 Y125.368 E57.65478
G1 X126.471 Y126.3 E57.77662
G1 X126.169 Y126.91 E57.8583
G1 X125.672 Y127.796 E57.98021
G1 X125.317 Y128.361 E58.06028
G1 X124.734 Y129.191 E58.182
G1 X124.313 Y129.728 E58.26388
G1 X123.645 Y130.496 E58.38602
G1 X123.06 Y131.089 E58.48598
G1 X121.925 Y132.102 E58.66854
G1 X121.26 Y132.623 E58.76991
G1 X120.422 Y133.197 E58.8918
G1 X119.842 Y133.552 E58.9734
G1 X118.949 Y134.037 E59.09535
G1 X118.343 Y134.327 E59.17597
G1 X117.407 Y134.718 E59.29769
G1 X116.612 Y134.992 E59.3986
G1 X115.142 Y135.396 E59.58154
G1 X114.316 Y135.567 E59.68276
G1 X113.311 Y135.709 E59.80456
G1 X112.641 Y135.769 E59.88528
G1 X111.624 Y135.808 E60.00741
G1 X110.948 Y135.799 E60.08854
G1 X109.935 Y135.734 E60.21035
G1 X108.939 Y135.594 E60.33104
G1 X106.958 Y135.158 E60.57445
G1 X105.986 Y134.864 E60.69631
G1 X105.039 Y134.496 E60.81823
G1 X104.274 Y134.141 E60.91943
G1 X102.935 Y133.412 E61.10238
G1 X102.091 Y132.865 E61.22307
G1 X100.881 Y131.943 E61.40562
G1 X100.247 Y131.392 E61.50642
G1 X99.523 Y130.678 E61.62844
G1 X99.059 Y130.171 E61.71092
G1 X98.416 Y129.389 E61.8324
G1 X98.023 Y128.86 E61.91149
G1 X97.458 Y128.013 E62.03366
G1 X97.115 Y127.436 E62.11421
G1 X96.64 Y126.538 E62.23612
G1 X96.351 Y125.916 E62.31842
G1 X95.972 Y124.974 E62.44027
G1 X95.71 Y124.18 E62.5406
G1 X95.325 Y122.708 E62.72318
G1 X95.144 Y121.705 E62.84549
G1 X94.99 Y120.189 E63.02834
G1 X94.956 Y119.527 E63.10789
G1 X94.952 Y114.368 E63.72697
G1 X94.991 Y113.643 E63.8141
G1 X95.11 Y112.926 E63.90131
G1 X95.115 Y112.908 E63.90355
G1 X95.155 Y102.591 E65.1416
G1 X95.198 Y101.866 E65.22876
G1 X95.292 Y101.279 E65.30009
G1 X95.697 Y99.322 E65.53991
G1 X95.883 Y98.62 E65.62706
G1 X96.039 Y98.191 E65.68183
G1 X96.6 Y96.8 E65.86182
G1 X96.963 Y96.044 E65.96245
G1 X97.452 Y95.171 E66.08253
G1 X97.814 Y94.596 E66.16407
G1 X98.39 Y93.778 E66.28412
G1 X98.801 Y93.252 E66.36422
G1 X99.457 Y92.496 E66.48434
G0 F3600 X99.759 Y92.759
G1 F1800 X100.203 Y92.298 E66.56114
G1 X100.932 Y91.615 E66.68102
G1 X101.408 Y91.211 E66.75594
G1 X102.203 Y90.604 E66.87596
G1 X102.727 Y90.245 E66.95219
G1 X103.579 Y89.723 E67.07209
G1 X104.142 Y89.417 E67.14898
G1 X105.045 Y88.985 E67.26911
G1 X105.773 Y88.692 E67.36328
G1 X107.196 Y88.221 E67.54315
G1 X108.119 Y87.992 E67.65726
G1 X109.599 Y87.744 E67.83734
G1 X110.389 Y87.663 E67.93264
G1 X111.39 Y87.625 E68.05284
G1 X112.022 Y87.634 E68.12869
G1 X113.02 Y87.698 E68.2487
G1 X113.806 Y87.799 E68.34379
G1 X115.278 Y88.085 E68.52374
G1 X116.035 Y88.282 E68.6176
G1 X116.985 Y88.595 E68.73763
G1 X117.728 Y88.895 E68.83378
G1 X119.08 Y89.544 E69.01375
G1 X119.894 Y90.013 E69.12648
G1 X121.131 Y90.858 E69.30625
G1 X121.76 Y91.35 E69.40208
G1 X122.507 Y92.016 E69.52217
G1 X122.959 Y92.463 E69.59845
G1 X123.633 Y93.201 E69.71839
G1 X124.216 Y93.946 E69.83191
G1 X125.324 Y95.61 E70.07181
G1 X125.789 Y96.441 E70.18608
G1 X126.209 Y97.348 E70.30602
G1 X126.441 Y97.924 E70.38054
G1 X126.768 Y98.868 E70.50042
G1 X126.981 Y99.641 E70.59664
G1 X127.285 Y101.11 E70.77665
G1 X127.396 Y101.889 E70.87108
G1 X127.473 Y102.886 E70.99107
G1 X127.491 Y103.35 E71.04679
G1 X127.512 Y113.12 E72.2192
G1 X127.559 Y113.325 E72.24444
G1 X127.637 Y114.025 E72.32896
G1 X127.646 Y114.417 E72.37601
G1 X127.594 Y120.336 E73.08631
G1 X127.495 Y121.386 E73.21287
G1 X127.224 Y122.884 E73.39555
G1 X127.033 Y123.653 E73.49064
G1 X126.726 Y124.622 E73.61261
G1 X126.507 Y125.21 E73.68791
G1 X126.104 Y126.142 E73.80975
G1 X125.82 Y126.714 E73.88639
G1 X125.323 Y127.6 E74.00829
G1 X124.989 Y128.131 E74.08357
G1 X124.406 Y128.961 E74.20529
G1 X124.011 Y129.466 E74.28222
G1 X123.343 Y130.234 E74.40437
G1 X122.793 Y130.791 E74.4983
G1 X121.658 Y131.804 E74.68086
G1 X121.034 Y132.293 E74.77599
G1 X120.196 Y132.867 E74.89788
G1 X119.651 Y133.2 E74.97452
G1 X118.758 Y133.685 E75.09647
G1 X118.189 Y133.958 E75.1722
G1 X117.253 Y134.349 E75.29392
G1 X116.506 Y134.606 E75.38872
G1 X115.036 Y135.01 E75.57166
G1 X114.26 Y135.171 E75.66677
G1 X113.255 Y135.313 E75.78856
