;FLAVOR:UltiGCode
;TIME:128
;MATERIAL:119
;MATERIAL2:0
;NOZZLE_DIAMETER:0.4
;Generated with Cura_SteamEngine 2.6.0

;LAYER_COUNT:6
;LAYER:0
M107
G0 F3600 X86.92 Y102.233 Z0.3
;TYPE:SKIRT
G1 F1800 X87.362 Y101.93 E0.06431
G1 X87.845 Y101.695 E0.12876
G1 X88.356 Y101.535 E0.19302
G1 X88.886 Y101.452 E0.25739
G1 X89.333 Y101.445 E0.31104
G1 X92.883 Y101.603 E0.73746
G1 X98.39 Y101.597 E1.3983
G1 X101.777 Y101.441 E1.80517
G1 X101.94 Y101.437 E1.82474
G1 X113.974 Y101.427 E3.26882
G1 X114.084 Y101.429 E3.28202
G1 X121.193 Y101.641 E4.13548
G1 X121.727 Y101.696 E4.1999
G1 X122.246 Y101.831 E4.26425
G1 X122.739 Y102.041 E4.32856
G1 X123.196 Y102.322 E4.39293
G1 X123.631 Y102.693 E4.46154
G1 X136.351 Y115.41 E6.61994
G1 X136.701 Y115.816 E6.68427
G1 X136.987 Y116.27 E6.74865
G1 X137.202 Y116.762 E6.81309
G1 X137.342 Y117.279 E6.87736
G1 X137.403 Y117.812 E6.94174
G1 X137.385 Y118.348 E7.00609
G1 X137.287 Y118.875 E7.07042
G1 X137.111 Y119.382 E7.13482
G1 X136.863 Y119.857 E7.19912
G1 X136.547 Y120.29 E7.26345
G1 X136.169 Y120.672 E7.32793
G1 X135.74 Y120.993 E7.39223
G1 X135.267 Y121.246 E7.4566
G1 X134.762 Y121.427 E7.52098
G1 X134.236 Y121.53 E7.58529
G1 X133.8 Y121.556 E7.63771
G1 X120.419 Y121.535 E9.24343
G1 X120.296 Y121.533 E9.25819
G1 X110.977 Y121.198 E10.37719
G1 X105.475 Y121.202 E11.03743
G1 X102.109 Y121.358 E11.44179
G1 X101.942 Y121.362 E11.46183
G1 X89.173 Y121.362 E12.99411
G1 X88.638 Y121.322 E13.05849
G1 X88.115 Y121.203 E13.12286
G1 X87.616 Y121.008 E13.18715
G1 X87.151 Y120.74 E13.25155
G1 X86.731 Y120.407 E13.31587
G1 X86.365 Y120.015 E13.38023
G1 X86.062 Y119.573 E13.44453
G1 X85.827 Y119.09 E13.50899
G1 X85.667 Y118.579 E13.57324
G1 X85.584 Y118.049 E13.63762
G1 X85.573 Y117.762 E13.67208
G1 X85.573 Y105.041 E15.1986
G1 X85.613 Y104.506 E15.26298
G1 X85.732 Y103.983 E15.32735
G1 X85.927 Y103.484 E15.39164
G1 X86.195 Y103.019 E15.45604
G1 X86.528 Y102.599 E15.52036
G1 X86.92 Y102.233 E15.58472
G0 F3600 X87.309 Y102.44
G1 F1800 X87.742 Y102.179 E15.64539
G1 X88.21 Y101.989 E15.706
G1 X88.703 Y101.876 E15.76669
G1 X89.315 Y101.844 E15.84023
G1 X92.888 Y102.003 E16.26942
G1 X98.387 Y101.997 E16.9293
G1 X101.796 Y101.84 E17.33881
G1 X101.94 Y101.837 E17.35609
G1 X113.974 Y101.827 E18.80017
G1 X114.072 Y101.828 E18.81194
G1 X121.181 Y102.04 E19.66539
G1 X121.684 Y102.095 E19.72611
G1 X122.172 Y102.229 E19.78684
G1 X122.632 Y102.437 E19.84742
G1 X123.054 Y102.716 E19.90813
G1 X123.348 Y102.976 E19.95523
G1 X136.068 Y115.693 E22.11363
G1 X136.397 Y116.078 E22.1744
G1 X136.66 Y116.509 E22.23499
G1 X136.852 Y116.977 E22.29569
G1 X136.969 Y117.469 E22.35638
G1 X137.006 Y117.973 E22.41702
G1 X136.963 Y118.477 E22.47772
G1 X136.842 Y118.967 E22.53829
G1 X136.645 Y119.433 E22.599
G1 X136.377 Y119.862 E22.6597
G1 X136.045 Y120.243 E22.72034
G1 X135.656 Y120.567 E22.78109
G1 X135.222 Y120.826 E22.84174
G1 X134.753 Y121.013 E22.90233
G1 X134.259 Y121.124 E22.96309
G1 X133.801 Y121.156 E23.01818
G1 X120.42 Y121.135 E24.6239
G1 X120.31 Y121.133 E24.6371
G1 X110.991 Y120.798 E25.75611
G1 X105.478 Y120.802 E26.41767
G1 X102.09 Y120.959 E26.82466
G1 X101.942 Y120.962 E26.84243
G1 X89.173 Y120.962 E28.37471
G1 X88.669 Y120.922 E28.43538
G1 X88.178 Y120.803 E28.496
G1 X87.711 Y120.609 E28.55669
G1 X87.281 Y120.343 E28.61736
G1 X86.898 Y120.013 E28.67803
G1 X86.572 Y119.626 E28.73875
G1 X86.311 Y119.193 E28.79942
G1 X86.121 Y118.725 E28.86003
G1 X86.008 Y118.232 E28.92072
G1 X85.973 Y117.762 E28.97728
G1 X85.973 Y105.041 E30.5038
G1 X86.013 Y104.537 E30.56447
G1 X86.132 Y104.046 E30.6251
G1 X86.326 Y103.579 E30.68578
G1 X86.592 Y103.149 E30.74645
G1 X86.922 Y102.766 E30.80712
G1 X87.309 Y102.44 E30.86784
G10
G0 F3600 X88.498 Y106.521
G0 X89.832 Y106.577
;TYPE:WALL-INNER
G11
G1 F1800 X89.832 Y117.173 E32.13936
G1 X89.763 Y117.173 E32.14764
G1 X89.763 Y106.568 E32.36761
G1 X89.763 Y106.478 E32.37841
G1 X89.853 Y106.568
G1 X89.832 Y106.577
G10
G0 F3600 X90.703 Y105.63
G0 X101.276 Y116.242
G0 X102.551 Y116.242
G0 X102.641 Y116.335
G0 X102.541 Y116.335
G11
G1 F1800 X102.541 Y116.226 E32.39149
G1 X102.654 Y116.28 E32.39197
G1 X102.768 Y116.335 E32.40045
G1 X102.683 Y116.403
G1 X102.541 Y116.517 E32.40608
G1 X102.541 Y116.335
G10
G0 F3600 X102.641 Y116.335
G0 X102.749 Y116.337
G0 X103.55 Y117.329
G0 X113.078 Y117.332
G0 X113.877 Y116.337
G0 X114.005 Y116.327
G0 X113.943 Y116.403
G11
G1 F1800 X113.858 Y116.335 E32.41914
G1 X113.97 Y116.281 E32.41956
G1 X114.084 Y116.226 E32.428
G1 X114.084 Y116.335
G1 X114.084 Y116.517 E32.43363
G1 X113.943 Y116.403
G10
G0 F3600 X114.005 Y116.327
G0 X114.076 Y116.499
G0 X115.349 Y116.499
G0 X120.82 Y118.634
G0 X131.686 Y118.638
G0 X131.686 Y117.363
G0 X131.753 Y117.319
G0 X131.67 Y117.373
G11
G1 F1800 X131.888 Y116.872 E32.4992
G1 X132.389 Y117.373 E32.58422
G1 X131.67 Y117.373 E32.6705
G0 F3600 X131.356 Y117.092
;TYPE:WALL-OUTER
G1 F1800 X131.461 Y116.851 E32.70205
G1 X131.353 Y116.735 E32.72107
G1 X125.553 Y110.537 E33.73969
G1 X121.843 Y106.572 E34.39129
G1 X121.59 Y106.672 E34.42394
G1 X121.59 Y111.768 E35.03546
G1 X121.59 Y112.073 E35.07206
G1 X121.263 Y112.074 E35.1113
G1 X118.062 Y112.089 E35.49542
G1 X116.638 Y112.047 E35.66638
G1 X116.476 Y112.043 E35.68582
G1 X116.369 Y112.292 E35.71835
G1 X116.483 Y112.406 E35.73479
G1 X117.736 Y113.659 E35.94743
G1 X120.427 Y116.457 E36.41327
G1 X121.038 Y117.092 E36.51902
G1 X121.058 Y117.092 E36.52142
G1 X131.197 Y117.092 E37.7381
G1 X131.356 Y117.092 E37.75417
G0 F3600 X131.436 Y116.909
G0 X131.893 Y117.108
G0 X132.297 Y117.335
G0 X132.873 Y117.773
G1 F1800 X121.176 Y117.773 E39.15781
G1 X120.781 Y117.378 E39.22484
G1 X120.767 Y117.364 E39.22717
G1 X120.144 Y116.741 E39.33066
G1 X115.216 Y111.811 E40.16714
G1 X116.474 Y111.803 E40.3181
G1 X116.636 Y111.801 E40.33366
G1 X118.06 Y111.791 E40.48275
G1 X121.261 Y111.768 E40.77277
G1 X121.287 Y106.671 E41.25599
G1 X121.292 Y105.709 E41.37143
G1 X121.998 Y106.415 E41.49124
G1 X125.838 Y110.255 E41.9963
G1 X133.015 Y117.433 E43.21436
G1 X133.355 Y117.773 E43.27206
G1 X132.875 Y117.773 E43.30305
G1 X132.873 Y117.773 E43.30329
G0 F3600 X132.673 Y117.773
G10
G0 X132.297 Y117.335
G0 X131.686 Y117.363
G0 X131.686 Y118.638
G0 X120.82 Y118.634
G0 X115.349 Y116.499
G0 X114.076 Y116.499
G0 X114.041 Y116.427
G0 X114.484 Y116.937
G11
G1 F1800 X114.484 Y117.353 E43.35321
G1 X114.16 Y117.092 E43.38063
G1 X108.312 Y112.385 E44.28147
G1 X102.465 Y117.092 E45.18222
G1 X102.144 Y117.351 E45.23171
G1 X101.871 Y117.571 E45.27379
G1 X101.2 Y117.571 E45.35431
G1 X100.667 Y117.571 E45.41827
G1 X90.233 Y117.572 E46.67035
G1 X89.363 Y117.573 E46.77475
G1 X89.363 Y105.512 E48.22207
G1 X90.463 Y106.613 E48.40883
G1 X90.535 Y106.685 E48.42104
G1 X100.825 Y116.975 E50.16732
G1 X100.898 Y117.048 E50.1797
G1 X101.199 Y117.349 E50.23079
G1 X101.87 Y117.349 E50.26755
G1 X102.141 Y117.348
G1 X102.141 Y116.935 E50.29501
G1 X102.141 Y105.227 E51.69997
G1 X114.484 Y105.227 E53.18113
G1 X114.484 Y116.936 E54.58621
G1 X114.484 Y116.937 E54.58633
G0 F3600 X114.484 Y117.137
G0 X114.041 Y116.427
G0 X114.032 Y116.31
G0 X113.911 Y115.865
G1 F1800 X113.911 Y115.71 E54.60493
G1 X113.911 Y105.8 E55.79413
G1 X102.714 Y105.8 E57.13777
G1 X102.714 Y115.71 E58.32697
G1 X102.714 Y115.865 E58.34557
G1 X102.941 Y115.974 E58.37579
G1 X103.061 Y115.877 E58.3943
G1 X108.312 Y111.65 E59.20322
G1 X113.564 Y115.877 E60.01223
G1 X113.684 Y115.974 E60.03074
G1 X113.911 Y115.865 E60.06096
G0 F3600 X113.911 Y115.71
G0 X113.911 Y115.665
G10
G0 X114.032 Y116.31
G0 X113.877 Y116.337
G0 X113.078 Y117.332
G0 X102.174 Y118.433
G0 X88.51 Y118.426
G0 X88.505 Y104.59
G0 X89.317 Y104.254
G0 X101.301 Y116.263
G0 X100.768 Y117.032
G11
G1 F1800 X90.479 Y106.743 E60.41004
G1 X90.232 Y106.845 E60.43167
G1 X90.232 Y117.279 E61.68375
G1 X100.666 Y117.279 E62.59937
G1 X100.768 Y117.032 E62.61741
G0 F3600 X100.627 Y116.891
G10
G0 X102.549 Y116.499
G0 X102.583 Y116.427
G0 X102.335 Y116.76
;TYPE:SKIN
G11
G1 F1800 X102.437 Y116.862 E62.62606
G0 F3600 X102.583 Y116.427
G0 X102.669 Y116.346
G0 X103.156 Y116.167
G1 F1800 X103.313 Y116.041 E62.63711
G1 X103.47 Y115.915 E62.64816
G1 X103.626 Y115.788 E62.65921
G1 X103.783 Y115.662 E62.67032
G1 X103.94 Y115.536 E62.68137
G1 X104.096 Y115.41 E62.69244
G1 X104.253 Y115.284 E62.70349
G1 X104.409 Y115.157 E62.71454
G1 X104.566 Y115.032 E62.72555
G1 X104.723 Y114.906 E62.73661
G1 X104.88 Y114.779 E62.74769
G1 X105.037 Y114.653 E62.75874
G1 X105.194 Y114.527 E62.7698
G1 X105.35 Y114.401 E62.78081
G1 X105.507 Y114.275 E62.79186
G1 X105.663 Y114.148 E62.8029
G1 X105.82 Y114.023 E62.81392
G1 X105.976 Y113.896 E62.82484
G1 X106.133 Y113.77 E62.83577
G1 X106.29 Y113.644 E62.84682
G1 X106.447 Y113.518 E62.85788
G1 X106.604 Y113.392 E62.86893
G1 X106.76 Y113.265 E62.87985
G1 X106.917 Y113.139 E62.89078
G1 X107.073 Y113.013 E62.90173
G1 X107.23 Y112.887 E62.91272
G1 X107.386 Y112.76 E62.92364
G1 X107.543 Y112.635 E62.93454
G1 X107.7 Y112.508 E62.94557
G1 X107.857 Y112.382 E62.95656
G1 X108.013 Y112.256 E62.96745
G1 X108.17 Y112.13 E62.97844
G1 X108.659 Y112.336 E63.0176
G1 X109.905 Y113.3 E63.10172
G1 X111.355 Y114.466 E63.20387
G1 X112.804 Y115.632 E63.30542
G0 F3600 X113.957 Y116.346
G0 X114.032 Y116.31
G0 X114.176 Y115.873
G1 F1800 X114.196 Y115.611 E63.31922
G1 X114.196 Y115.328 E63.33476
G1 X114.196 Y115.045 E63.35029
G1 X114.196 Y114.762 E63.36583
G1 X114.196 Y114.479 E63.38137
G1 X114.196 Y114.196 E63.3969
G1 X114.196 Y113.914 E63.41238
G1 X114.196 Y113.631 E63.42792
G1 X114.196 Y113.348 E63.44346
G1 X114.196 Y113.065 E63.45899
G1 X114.196 Y112.782 E63.47453
G1 X114.196 Y112.499 E63.49007
G1 X114.196 Y112.217 E63.50555
G1 X114.196 Y111.934 E63.52109
G1 X114.196 Y111.651 E63.53662
G1 X114.196 Y111.368 E63.55216
G1 X114.196 Y111.085 E63.5677
G1 X114.196 Y110.802 E63.58323
G1 X114.196 Y110.52 E63.59871
G1 X114.196 Y110.237 E63.61425
G1 X114.196 Y109.954 E63.62979
G1 X114.196 Y109.671 E63.64532
G1 X114.196 Y109.388 E63.66086
G1 X114.196 Y109.105 E63.6764
G1 X114.196 Y108.822 E63.69193
G1 X114.196 Y108.54 E63.70742
G1 X114.196 Y108.257 E63.72295
G1 X114.196 Y107.974 E63.73849
G1 X114.196 Y107.691 E63.75403
G1 X114.196 Y107.408 E63.76956
G1 X114.196 Y107.125 E63.7851
G1 X114.196 Y106.843 E63.80058
G1 X114.196 Y106.56 E63.81612
G1 X114.196 Y106.277 E63.83166
G1 X114.196 Y105.994 E63.84719
G1 X114.196 Y105.711 E63.86273
G0 F3600 X113.998 Y105.513
G1 F1800 X113.715 Y105.513 E63.87818
G1 X113.432 Y105.513 E63.89363
G1 X113.15 Y105.513 E63.90903
G1 X112.867 Y105.513 E63.92448
G1 X112.584 Y105.513 E63.93993
G1 X112.301 Y105.513 E63.95538
G1 X112.018 Y105.513 E63.97084
G1 X111.735 Y105.513 E63.98629
G1 X111.452 Y105.513 E64.00174
G1 X111.17 Y105.513 E64.01714
G1 X110.887 Y105.513 E64.03259
G1 X110.604 Y105.513 E64.04804
G1 X110.321 Y105.513 E64.06349
G1 X110.038 Y105.513 E64.07894
G1 X109.755 Y105.513 E64.0944
G1 X109.473 Y105.513 E64.10979
G1 X109.19 Y105.513 E64.12525
G1 X108.907 Y105.513 E64.1407
G1 X108.624 Y105.513 E64.15615
G1 X108.341 Y105.513 E64.1716
G1 X108.058 Y105.513 E64.18705
G1 X107.776 Y105.513 E64.20245
G1 X107.493 Y105.513 E64.2179
G1 X107.21 Y105.513 E64.23335
G1 X106.927 Y105.513 E64.24881
G1 X106.644 Y105.513 E64.26426
G1 X106.361 Y105.513 E64.27971
G1 X106.078 Y105.513 E64.29516
G1 X105.796 Y105.513 E64.31056
G1 X105.513 Y105.513 E64.32601
G1 X105.23 Y105.513 E64.34146
G1 X104.947 Y105.513 E64.35691
G1 X104.664 Y105.513 E64.37237
G1 X104.381 Y105.513 E64.38782
G1 X104.099 Y105.513 E64.40321
G1 X103.816 Y105.513 E64.41867
G1 X103.533 Y105.513 E64.43412
G1 X103.25 Y105.513 E64.44957
G1 X102.967 Y105.513 E64.46502
G1 X102.684 Y105.513 E64.48047
G1 X102.427 Y105.538 E64.49581
G1 X102.427 Y105.821 E64.51135
G1 X102.427 Y106.104 E64.52688
G1 X102.427 Y106.386 E64.54237
G1 X102.427 Y106.669 E64.5579
G1 X102.427 Y106.952 E64.57344
G1 X102.427 Y107.235 E64.58898
G1 X102.427 Y107.518 E64.60451
G1 X102.427 Y107.801 E64.62005
G1 X102.427 Y108.084 E64.63559
G1 X102.427 Y108.366 E64.65107
G1 X102.427 Y108.649 E64.6666
G1 X102.427 Y108.932 E64.68214
G1 X102.427 Y109.215 E64.69768
G1 X102.427 Y109.498 E64.71321
G1 X102.427 Y109.781 E64.72875
G1 X102.427 Y110.063 E64.74423
G1 X102.427 Y110.346 E64.75977
G1 X102.427 Y110.629 E64.77531
G1 X102.427 Y110.912 E64.79084
G1 X102.427 Y111.195 E64.80638
G1 X102.427 Y111.478 E64.82192
G1 X102.427 Y111.76 E64.8374
G1 X102.427 Y112.043 E64.85294
G1 X102.427 Y112.326 E64.86847
G1 X102.427 Y112.609 E64.88401
G1 X102.427 Y112.892 E64.89955
G1 X102.427 Y113.175 E64.91508
G1 X102.427 Y113.458 E64.93062
G1 X102.427 Y113.74 E64.9461
G1 X102.427 Y114.023 E64.96164
G1 X102.427 Y114.306 E64.97717
G1 X102.427 Y114.589 E64.99271
G1 X102.427 Y114.872 E65.00825
G1 X102.427 Y115.155 E65.02378
G1 X102.427 Y115.437 E65.03927
G1 X102.427 Y115.72 E65.0548
G10
G0 F3600 X102.594 Y116.31
G0 X102.749 Y116.337
G0 X103.55 Y117.329
G0 X113.078 Y117.332
G0 X113.877 Y116.337
G0 X114.041 Y116.427
G0 X114.142 Y116.688
G11
G1 F1800 X114.288 Y116.834 E65.06719
G10
G0 F3600 X114.041 Y116.427
G0 X114.074 Y116.242
G0 X115.349 Y116.242
G0 X115.308 Y113.92
G0 X115.295 Y113.113
G0 X116.184 Y112.224
G11
G1 F1800 X115.961 Y112.001 E65.08611
G10
G0 F3600 X115.953 Y110.941
G0 X115.349 Y105.52
G0 X114.288 Y105.52
G11
G1 F1800 X114.19 Y105.422 E65.09443
G10
G0 F3600 X115.349 Y105.422
G0 X120.423 Y106.206
G0 X121.485 Y106.211
G11
G1 F1800 X121.693 Y106.42 E65.11212
G10
G0 F3600 X122.458 Y105.654
G0 X127.066 Y110.262
G0 X126.301 Y111.028
G11
G1 F1800 X131.83 Y116.556 E65.58123
G0 F3600 X131.743 Y116.753
G1 F1800 X130.081 Y115.09 E65.7223
G10
G0 F3600 X129.308 Y115.815
G0 X129.749 Y116.252
G0 X130.16 Y117.432
G11
G1 F1800 X130.442 Y117.432 E65.74683
G1 X130.725 Y117.432 E65.77145
G1 X131.008 Y117.432 E65.79607
G1 X131.273 Y117.414 E65.81918
G1 X131.457 Y117.315 E65.83235
G0 F3600 X131.753 Y117.319
G0 X132.297 Y117.335
G0 X132.543 Y117.552
G1 F1800 X132.725 Y117.452 E65.84493
G10
G0 F3600 X132.297 Y117.335
G0 X131.686 Y117.363
G0 X130.022 Y117.577
G0 X129.877 Y117.432
G11
G1 F1800 X129.594 Y117.432 E65.86955
G1 X129.311 Y117.432 E65.89417
G1 X129.028 Y117.432 E65.91879
G1 X128.745 Y117.432 E65.94341
G1 X128.462 Y117.432 E65.96803
G1 X128.18 Y117.432 E65.99257
G1 X127.897 Y117.432 E66.01719
G1 X127.614 Y117.432 E66.04181
G1 X127.331 Y117.432 E66.06643
G1 X127.048 Y117.432 E66.09105
G1 X126.765 Y117.432 E66.11567
G1 X126.483 Y117.432 E66.14021
G1 X126.2 Y117.432 E66.16483
G1 X125.917 Y117.432 E66.18945
G1 X125.634 Y117.432 E66.21407
G1 X125.351 Y117.432 E66.23869
G1 X125.068 Y117.432 E66.26331
G1 X124.786 Y117.432 E66.28785
G1 X124.503 Y117.432 E66.31247
G1 X124.22 Y117.432 E66.33709
G1 X123.937 Y117.432 E66.36171
G1 X123.654 Y117.432 E66.38633
G1 X123.371 Y117.432 E66.41095
G1 X123.088 Y117.432 E66.43557
G1 X122.806 Y117.432 E66.46011
G1 X122.523 Y117.432 E66.48473
G1 X122.24 Y117.432 E66.50935
G1 X121.957 Y117.432 E66.53397
G1 X121.674 Y117.432 E66.55859
G1 X121.391 Y117.432 E66.58321
G10
G0 F3600 X120.358 Y118.177
G0 X114.595 Y118.544
G0 X108.312 Y113.485
G0 X103.633 Y117.175
G0 X91.597 Y116.456
G0 X91.518 Y116.451
G0 X91.085 Y116.426
G0 X89.818 Y117.159
G0 X89.801 Y106.57
G0 X89.643 Y106.331
G11
G1 F1800 X89.557 Y106.245 E66.59051
G0 F3600 X89.763 Y106.478
;TIME_ELAPSED:33.599364
;LAYER:1
M106 S255
G0 F5400 X89.763 Y106.478 Z0.4
;TYPE:WALL-INNER
G1 F2700 X89.853 Y106.568 E66.5956
G1 X89.832 Y106.577
G1 X89.832 Y117.173 E67.01944
G1 X89.763 Y117.173 E67.0222
G1 X89.763 Y106.568 E67.09355
G1 X89.763 Y106.478 E67.09359
G10
G0 F5400 X89.801 Y106.57
G0 X89.812 Y116.335
G0 X91.097 Y116.335
G0 X98.808 Y116.279
G0 X98.888 Y116.279
G0 X101.238 Y116.262
G0 X101.318 Y116.262
G0 X101.301 Y116.263
G0 X102.561 Y116.335
G0 X102.641 Y116.335
G0 X102.541 Y116.335
G11
G1 F2700 X102.541 Y116.226 E67.09795
G1 X102.654 Y116.28 E67.09811
G1 X102.768 Y116.335 E67.10093
G1 X102.683 Y116.403
G1 X102.541 Y116.517 E67.10281
G1 X102.541 Y116.335
G10
G0 F5400 X102.641 Y116.335
G0 X102.749 Y116.337
G0 X103.55 Y117.329
G0 X113.078 Y117.332
G0 X113.877 Y116.337
G0 X114.005 Y116.327
G0 X113.943 Y116.403
G11
G1 F2700 X113.858 Y116.335 E67.10716
G1 X113.97 Y116.281 E67.1073
