;FLAVOR:UltiGCode
;TIME:3447
;MATERIAL:2537
;MATERIAL2:0
;NOZZLE_DIAMETER:0.4
;Generated with Cura_SteamEngine 2.6.1

;LAYER_COUNT:483
;LAYER:0
M107
G0 F3600 X104.503 Y101.733 Z0.3
;TYPE:SKIRT
G1 F1800 X105.168 Y101.132 E0.10756
G1 X105.566 Y100.816 E0.16854
G1 X106.712 Y100.019 E0.33605
G1 X107.237 Y99.71 E0.40915
G1 X108.473 Y99.105 E0.57429
G1 X108.941 Y98.912 E0.63504
G1 X109.771 Y98.629 E0.74027
G1 X110.244 Y98.499 E0.79913
G1 X111.556 Y98.225 E0.95997
G1 X112.063 Y98.153 E1.02142
G1 X113.036 Y98.077 E1.13853
G1 X113.557 Y98.071 E1.20106
G1 X114.947 Y98.144 E1.36809
G1 X115.559 Y98.223 E1.44214
G1 X116.906 Y98.506 E1.60731
G1 X117.488 Y98.675 E1.68003
G1 X118.769 Y99.155 E1.84419
G1 X119.253 Y99.374 E1.90794
G1 X120.131 Y99.844 E2.02744
G1 X120.556 Y100.108 E2.08748
G1 X121.628 Y100.868 E2.24517
G1 X122.151 Y101.311 E2.32742
G1 X123.381 Y102.548 E2.53675
G1 X123.829 Y103.084 E2.62058
G1 X124.643 Y104.254 E2.79162
G1 X124.96 Y104.797 E2.86707
G1 X125.584 Y106.088 E3.03914
G1 X125.813 Y106.675 E3.11475
G1 X126.207 Y107.983 E3.27867
G1 X126.32 Y108.466 E3.3382
G1 X126.472 Y109.359 E3.4469
G1 X126.528 Y109.936 E3.51646
G1 X126.569 Y111.675 E3.7252
G1 X126.567 Y111.924 E3.75508
G1 X126.388 Y116.536 E4.30894
G1 X126.317 Y117.146 E4.38263
G1 X126.055 Y118.491 E4.54707
G1 X125.887 Y119.097 E4.62253
G1 X125.402 Y120.426 E4.7923
G1 X125.154 Y120.974 E4.86448
G1 X124.545 Y122.088 E5.01683
G1 X124.278 Y122.51 E5.07676
G1 X123.723 Y123.279 E5.19056
G1 X123.404 Y123.668 E5.25093
G1 X122.519 Y124.616 E5.40655
G1 X122.14 Y124.972 E5.46895
G1 X121.382 Y125.597 E5.58684
G1 X120.962 Y125.9 E5.64899
G1 X119.82 Y126.616 E5.81074
G1 X119.366 Y126.861 E5.87265
G1 X118.511 Y127.254 E5.98556
G1 X117.94 Y127.466 E6.05865
G1 X116.244 Y127.951 E6.27033
G1 X115.559 Y128.083 E6.35405
G1 X114.254 Y128.219 E6.51149
G1 X113.745 Y128.24 E6.57263
G1 X112.764 Y128.217 E6.69038
G1 X112.141 Y128.153 E6.76553
G1 X110.384 Y127.833 E6.97984
G1 X109.799 Y127.68 E7.0524
G1 X108.922 Y127.378 E7.16371
G1 X108.454 Y127.183 E7.22455
G1 X107.295 Y126.611 E7.37964
G1 X106.827 Y126.339 E7.4446
G1 X105.922 Y125.728 E7.57563
G1 X105.516 Y125.415 E7.63715
G1 X104.593 Y124.602 E7.78475
G1 X104.24 Y124.249 E7.84465
G1 X103.599 Y123.524 E7.96078
G1 X103.279 Y123.111 E8.02348
G1 X102.516 Y121.979 E8.18729
G1 X102.218 Y121.455 E8.25963
G1 X101.648 Y120.251 E8.41948
G1 X101.406 Y119.601 E8.50272
G1 X100.949 Y117.941 E8.70933
G1 X100.834 Y117.349 E8.78169
G1 X100.724 Y116.419 E8.89407
G1 X100.697 Y116.051 E8.93835
G1 X100.557 Y110.573 E9.59593
G1 X100.612 Y109.807 E9.68808
G1 X100.906 Y108.061 E9.90055
G1 X101.12 Y107.281 E9.99761
G1 X101.798 Y105.529 E10.22304
G1 X102.065 Y104.972 E10.29717
G1 X102.533 Y104.162 E10.40942
G1 X102.893 Y103.639 E10.48562
G1 X104.082 Y102.177 E10.71175
G1 X104.503 Y101.733 E10.78517
G0 F3600 X104.771 Y102.03
G1 F1800 X105.436 Y101.429 E10.89273
G1 X105.795 Y101.144 E10.94774
G1 X106.941 Y100.347 E11.11525
G1 X107.413 Y100.07 E11.18092
G1 X108.649 Y99.465 E11.34605
G1 X109.07 Y99.291 E11.40072
G1 X109.9 Y99.008 E11.50595
G1 X110.326 Y98.891 E11.55896
G1 X111.638 Y98.617 E11.7198
G1 X112.094 Y98.552 E11.77507
G1 X113.067 Y98.476 E11.89219
G1 X113.536 Y98.47 E11.94847
G1 X114.926 Y98.543 E12.1155
G1 X115.477 Y98.615 E12.18219
G1 X116.824 Y98.898 E12.34735
G1 X117.347 Y99.05 E12.41271
G1 X118.628 Y99.53 E12.57687
G1 X119.064 Y99.727 E12.63428
G1 X119.942 Y100.197 E12.75379
G1 X120.325 Y100.434 E12.80783
G1 X121.397 Y101.194 E12.96552
G1 X121.868 Y101.593 E13.0396
G1 X123.098 Y102.83 E13.24893
G1 X123.5 Y103.312 E13.32425
G1 X124.314 Y104.482 E13.49528
G1 X124.6 Y104.971 E13.56326
G1 X125.224 Y106.262 E13.73533
G1 X125.43 Y106.791 E13.80345
G1 X125.824 Y108.099 E13.96738
G1 X125.926 Y108.533 E14.02088
G1 X126.078 Y109.426 E14.12958
G1 X126.128 Y109.945 E14.19215
G1 X126.169 Y111.684 E14.40089
G1 X126.167 Y111.909 E14.42789
G1 X125.988 Y116.521 E14.98174
G1 X125.925 Y117.069 E15.04794
G1 X125.663 Y118.414 E15.21237
G1 X125.511 Y118.96 E15.28038
G1 X125.026 Y120.289 E15.45015
G1 X124.803 Y120.782 E15.51508
G1 X124.194 Y121.896 E15.66743
G1 X123.954 Y122.276 E15.72137
G1 X123.399 Y123.045 E15.83517
G1 X123.112 Y123.395 E15.88948
G1 X122.227 Y124.343 E16.04511
G1 X121.885 Y124.664 E16.1014
G1 X121.127 Y125.289 E16.21929
G1 X120.749 Y125.561 E16.27517
G1 X119.607 Y126.277 E16.43692
G1 X119.199 Y126.498 E16.4926
G1 X118.344 Y126.891 E16.60552
G1 X117.83 Y127.081 E16.67128
G1 X116.134 Y127.566 E16.88296
G1 X115.517 Y127.686 E16.95839
G1 X114.212 Y127.822 E17.11583
G1 X113.755 Y127.84 E17.17072
G1 X112.774 Y127.817 E17.28847
G1 X112.213 Y127.76 E17.35613
G1 X110.456 Y127.44 E17.57044
G1 X109.929 Y127.302 E17.63582
G1 X109.052 Y127 E17.74712
G1 X108.631 Y126.824 E17.80188
G1 X107.472 Y126.252 E17.95697
G1 X107.051 Y126.008 E18.01536
G1 X106.146 Y125.397 E18.1464
G1 X105.78 Y125.114 E18.20192
G1 X104.857 Y124.301 E18.34952
G1 X104.54 Y123.985 E18.40323
G1 X103.899 Y123.26 E18.51936
G1 X103.611 Y122.887 E18.57591
G1 X102.848 Y121.755 E18.73972
G1 X102.579 Y121.283 E18.80491
G1 X102.009 Y120.079 E18.96477
G1 X101.792 Y119.495 E19.03953
G1 X101.335 Y117.835 E19.24614
G1 X101.231 Y117.302 E19.31131
G1 X101.121 Y116.372 E19.42368
G1 X101.097 Y116.041 E19.46351
G1 X100.957 Y110.563 E20.12108
G1 X101.006 Y109.873 E20.20409
G1 X101.3 Y108.127 E20.41656
G1 X101.493 Y107.426 E20.50381
G1 X102.171 Y105.674 E20.72924
G1 X102.411 Y105.172 E20.79602
G1 X102.879 Y104.362 E20.90827
G1 X103.203 Y103.892 E20.97678
G1 X104.392 Y102.43 E21.20291
G1 X104.771 Y102.03 E21.26903
G0 F3600 X105.039 Y102.327
G1 F1800 X105.704 Y101.726 E21.3766
G1 X106.023 Y101.473 E21.42545
G1 X107.169 Y100.676 E21.59296
G1 X107.589 Y100.429 E21.65143
G1 X108.825 Y99.824 E21.81657
G1 X109.199 Y99.669 E21.86515
G1 X110.029 Y99.386 E21.97038
G1 X110.408 Y99.283 E22.01751
G1 X111.72 Y99.009 E22.17834
G1 X112.125 Y98.951 E22.22744
G1 X113.098 Y98.875 E22.34455
G1 X113.515 Y98.869 E22.3946
G1 X114.905 Y98.942 E22.56163
G1 X115.395 Y99.006 E22.62093
G1 X116.742 Y99.289 E22.7861
G1 X117.207 Y99.424 E22.8442
G1 X118.488 Y99.904 E23.00836
G1 X118.875 Y100.08 E23.05938
G1 X119.753 Y100.55 E23.17888
G1 X120.094 Y100.76 E23.22694
G1 X121.166 Y101.52 E23.38463
G1 X121.584 Y101.875 E23.45044
G1 X122.814 Y103.112 E23.65977
G1 X123.172 Y103.54 E23.72673
G1 X123.986 Y104.71 E23.89776
G1 X124.24 Y105.145 E23.95821
G1 X124.864 Y106.436 E24.13028
G1 X125.047 Y106.906 E24.1908
G1 X125.441 Y108.214 E24.35473
G1 X125.532 Y108.6 E24.40232
G1 X125.684 Y109.493 E24.51102
G1 X125.728 Y109.955 E24.56671
G1 X125.769 Y111.694 E24.77545
G1 X125.768 Y111.893 E24.79933
G1 X125.589 Y116.505 E25.35319
G1 X125.532 Y116.993 E25.41215
G1 X125.27 Y118.338 E25.57658
G1 X125.135 Y118.823 E25.63699
G1 X124.65 Y120.152 E25.80676
G1 X124.452 Y120.59 E25.86444
G1 X123.843 Y121.704 E26.01679
G1 X123.63 Y122.042 E26.06473
G1 X123.075 Y122.811 E26.17854
G1 X122.819 Y123.122 E26.22687
G1 X121.934 Y124.07 E26.3825
G1 X121.631 Y124.355 E26.43242
G1 X120.873 Y124.98 E26.55031
G1 X120.537 Y125.222 E26.6
G1 X119.395 Y125.938 E26.76175
G1 X119.031 Y126.135 E26.81141
G1 X118.176 Y126.528 E26.92433
G1 X117.72 Y126.697 E26.98269
G1 X116.024 Y127.182 E27.19437
G1 X115.476 Y127.288 E27.26135
G1 X114.171 Y127.424 E27.4188
G1 X113.764 Y127.44 E27.46767
G1 X112.783 Y127.417 E27.58543
G1 X112.285 Y127.366 E27.6455
G1 X110.528 Y127.046 E27.85981
G1 X110.059 Y126.924 E27.91796
G1 X109.182 Y126.622 E28.02927
G1 X108.808 Y126.466 E28.07789
G1 X107.649 Y125.894 E28.23299
G1 X107.274 Y125.676 E28.28504
G1 X106.369 Y125.065 E28.41607
G1 X106.045 Y124.814 E28.46526
G1 X105.122 Y124.001 E28.61286
G1 X104.84 Y123.72 E28.66063
G1 X104.199 Y122.995 E28.77676
G1 X103.942 Y122.664 E28.82704
G1 X103.179 Y121.532 E28.99086
G1 X102.941 Y121.112 E29.04879
G1 X102.371 Y119.908 E29.20864
G1 X102.178 Y119.388 E29.2752
G1 X101.721 Y117.728 E29.48181
G1 X101.628 Y117.255 E29.53966
G1 X101.518 Y116.325 E29.65204
G1 X101.497 Y116.031 E29.68741
G1 X101.357 Y110.553 E30.34498
G1 X101.4 Y109.94 E30.41872
G1 X101.694 Y108.194 E30.63119
G1 X101.866 Y107.57 E30.70886
G1 X102.544 Y105.818 E30.9343
G1 X102.757 Y105.372 E30.99361
G1 X103.225 Y104.562 E31.10587
G1 X103.513 Y104.144 E31.16678
G1 X104.702 Y102.682 E31.39291
G1 X105.039 Y102.327 E31.45165
G10
G0 F3600 X106.809 Y104.13
G0 X107.71 Y105.046
G0 X107.862 Y105.008
G0 X107.794 Y104.935
;TYPE:WALL-INNER
G11
G1 F1800 X108.116 Y104.648 E31.50341
G1 X108.455 Y104.376 E31.55557
G1 X108.786 Y104.137 E31.60456
G1 X109.164 Y103.892 E31.65861
G1 X109.537 Y103.677 E31.71028
G1 X109.912 Y103.485 E31.76083
G1 X110.319 Y103.302 E31.81438
G1 X110.702 Y103.154 E31.86365
G1 X111.115 Y103.018 E31.91583
G1 X111.539 Y102.901 E31.96861
G1 X111.965 Y102.807 E32.02096
G1 X112.373 Y102.738 E32.07062
G1 X112.805 Y102.688 E32.1228
G1 X113.239 Y102.661 E32.17499
G1 X113.665 Y102.655 E32.22611
G1 X114.118 Y102.672 E32.28051
G1 X114.519 Y102.708 E32.32882
G1 X114.963 Y102.772 E32.38265
G1 X115.383 Y102.852 E32.43396
G1 X115.794 Y102.954 E32.48478
G1 X116.216 Y103.082 E32.53769
G1 X116.604 Y103.222 E32.58719
G1 X117.031 Y103.399 E32.64266
G1 X117.39 Y103.572 E32.69048
G1 X117.796 Y103.792 E32.74589
G1 X118.145 Y104.006 E32.79502
G1 X118.505 Y104.253 E32.84741
G1 X118.851 Y104.517 E32.89964
G1 X119.165 Y104.782 E32.94894
G1 X119.489 Y105.086 E33.00226
G1 X119.786 Y105.395 E33.05369
G1 X120.075 Y105.727 E33.10651
G1 X120.326 Y106.048 E33.15541
G1 X120.582 Y106.412 E33.20881
G1 X120.818 Y106.785 E33.26177
G1 X121.027 Y107.159 E33.31319
G1 X121.211 Y107.528 E33.36266
G1 X121.383 Y107.923 E33.41436
G1 X121.54 Y108.344 E33.46828
G1 X121.667 Y108.745 E33.51876
G1 X121.776 Y109.16 E33.57025
G1 X121.865 Y109.594 E33.62341
G1 X121.93 Y110.011 E33.67406
G1 X121.974 Y110.475 E33.72998
G1 X121.976 Y110.487 E33.73144
G1 X121.858 Y110.486 E33.73945
G1 X121.846 Y115.794 E34.37641
G1 X121.816 Y116.19 E34.42407
G1 X121.76 Y116.624 E34.47658
G1 X121.686 Y117.04 E34.52728
G1 X121.586 Y117.466 E34.57979
G1 X121.476 Y117.848 E34.62749
G1 X121.337 Y118.25 E34.67854
G1 X121.169 Y118.671 E34.73293
G1 X121.003 Y119.027 E34.78007
G1 X120.801 Y119.41 E34.83203
G1 X120.585 Y119.775 E34.88292
G1 X120.339 Y120.144 E34.93614
G1 X120.103 Y120.46 E34.98347
G1 X119.821 Y120.804 E35.03685
G1 X119.549 Y121.101 E35.08517
G1 X119.233 Y121.414 E35.13855
G1 X118.921 Y121.692 E35.18869
G1 X118.594 Y121.954 E35.23897
G1 X118.26 Y122.195 E35.2884
G1 X117.879 Y122.442 E35.34289
G1 X117.533 Y122.642 E35.39084
G1 X117.152 Y122.837 E35.4422
G1 X116.754 Y123.016 E35.49457
G1 X116.377 Y123.162 E35.54309
G1 X115.969 Y123.296 E35.59462
G1 X115.542 Y123.414 E35.64778
G1 X115.155 Y123.5 E35.69535
G1 X114.721 Y123.572 E35.74814
G1 X114.311 Y123.619 E35.79767
G1 X113.878 Y123.648 E35.84974
G1 X113.464 Y123.653 E35.89943
G1 X113.017 Y123.636 E35.95311
G1 X112.623 Y123.601 E36.00057
G1 X112.186 Y123.538 E36.05355
G1 X111.772 Y123.459 E36.10413
G1 X111.37 Y123.359 E36.15384
G1 X110.95 Y123.231 E36.20653
G1 X110.567 Y123.095 E36.2553
G1 X110.156 Y122.922 E36.30881
G1 X109.799 Y122.75 E36.35636
G1 X109.408 Y122.538 E36.40974
G1 X109.054 Y122.321 E36.45956
G1 X108.699 Y122.079 E36.51112
G1 X108.372 Y121.828 E36.56059
G1 X108.037 Y121.546 E36.61313
G1 X107.731 Y121.257 E36.66364
G1 X107.441 Y120.956 E36.7138
G1 X107.175 Y120.65 E36.76245
G1 X106.897 Y120.293 E36.81675
G1 X106.656 Y119.951 E36.86696
G1 X106.424 Y119.584 E36.91906
G1 X106.223 Y119.224 E36.96853
G1 X106.045 Y118.864 E37.01673
G1 X105.87 Y118.459 E37.06967
G1 X105.72 Y118.059 E37.12093
G1 X105.595 Y117.662 E37.17088
G1 X105.489 Y117.254 E37.22147
G1 X105.398 Y116.819 E37.2748
G1 X105.335 Y116.407 E37.32481
G1 X105.293 Y115.997 E37.37427
G1 X105.271 Y115.557 E37.42713
G1 X105.268 Y110.486 E38.03565
G1 X105.172 Y110.486 E38.04717
G1 X105.151 Y110.487 E38.0497
G1 X105.169 Y110.245
G1 X105.227 Y109.796 E38.10402
G1 X105.299 Y109.393 E38.15315
G1 X105.401 Y108.954 E38.20723
G1 X105.521 Y108.541 E38.25884
G1 X105.658 Y108.142 E38.30947
G1 X105.823 Y107.733 E38.36239
G1 X106.005 Y107.341 E38.41425
G1 X106.206 Y106.96 E38.46594
G1 X106.416 Y106.608 E38.51513
G1 X106.667 Y106.231 E38.56948
G1 X106.915 Y105.895 E38.61959
G1 X107.184 Y105.57 E38.67022
G1 X107.495 Y105.229 E38.7256
G1 X107.794 Y104.935 E38.77592
G0 F3600 X107.862 Y105.008
G0 X112.2 Y112.378
G0 X112.282 Y112.434
G1 F1800 X112.3 Y112.524 E38.78694
G1 X111.806 Y112.791 E38.85432
G1 X111.765 Y112.762 E38.86035
G1 X111.663 Y112.868 E38.878
G1 X111.401 Y113.009 E38.9137
G1 X111.448 Y113.09 E38.92494
G1 X111.24 Y113.305 E38.96084
G1 X111.108 Y113.464 E38.98564
G1 X111.041 Y113.436 E38.99435
G1 X110.926 Y113.682 E39.02694
G1 X110.777 Y113.862 E39.05498
G1 X110.824 Y113.902 E39.06238
G1 X110.699 Y114.171 E39.09798
G1 X110.623 Y114.37 E39.12354
G1 X110.551 Y114.367 E39.13219
G1 X110.524 Y114.629 E39.16379
G1 X110.435 Y114.862 E39.19372
G1 X110.498 Y114.885 E39.20177
G1 X110.469 Y115.163 E39.23531
G1 X110.46 Y115.367 E39.25982
G1 X110.393 Y115.385 E39.26814
G1 X110.448 Y115.629 E39.29816
G1 X110.437 Y115.882 E39.32855
G1 X110.507 Y115.886 E39.33696
G1 X110.573 Y116.179 E39.373
G1 X110.635 Y116.382 E39.39847
G1 X110.576 Y116.423 E39.40709
G1 X110.716 Y116.648 E39.43889
G1 X110.771 Y116.829 E39.46159
G1 X110.822 Y116.818 E39.46785
G1 X111.002 Y117.108 E39.50881
G1 X111.127 Y117.279 E39.53423
G1 X111.078 Y117.348 E39.54439
G1 X111.307 Y117.526 E39.57919
G1 X111.418 Y117.678 E39.60178
G1 X111.464 Y117.648 E39.60837
G1 X111.912 Y117.996 E39.67644
G1 X111.9 Y118.049 E39.68296
G1 X112.053 Y118.105 E39.70251
G1 X112.282 Y118.283 E39.73732
G1 X112.335 Y118.209 E39.74824
G1 X112.614 Y118.311 E39.78389
G1 X112.821 Y118.372 E39.80978
G1 X112.824 Y118.442 E39.81819
G1 X113.074 Y118.447 E39.8482
G1 X113.296 Y118.513 E39.87599
G1 X113.316 Y118.452 E39.88369
G1 X113.624 Y118.459 E39.92066
G1 X113.835 Y118.45 E39.94601
G1 X113.865 Y118.528 E39.95604
G1 X114.132 Y118.436 E39.98992
G1 X114.34 Y118.427 E40.01491
G1 X114.339 Y118.366 E40.02223
G1 X114.826 Y118.198 E40.08405
G1 X114.876 Y118.258 E40.09342
G1 X115.053 Y118.12 E40.12035
G1 X115.293 Y118.038 E40.15079
G1 X115.265 Y117.956 E40.16119
G1 X115.715 Y117.606 E40.2296
G1 X115.772 Y117.635 E40.23727
G1 X115.87 Y117.486 E40.25867
G1 X116.078 Y117.324 E40.29031
G1 X116.021 Y117.254 E40.30114
G1 X116.303 Y116.824 E40.36285
G1 X116.367 Y116.838 E40.37071
G1 X116.421 Y116.644 E40.39487
G1 X116.576 Y116.407 E40.42886
G1 X116.5 Y116.358 E40.43971
G1 X116.583 Y116.061 E40.47671
G1 X116.623 Y115.863 E40.50095
G1 X116.711 Y115.854 E40.51157
G1 X116.686 Y115.557 E40.54733
G1 X116.726 Y115.36 E40.57146
G1 X116.668 Y115.347 E40.57859
G1 X116.625 Y114.832 E40.6406
G1 X116.684 Y114.803 E40.64849
G1 X116.606 Y114.614 E40.67303
G1 X116.582 Y114.328 E40.70747
G1 X116.492 Y114.338 E40.71834
G1 X116.377 Y114.058 E40.75466
G1 X116.287 Y113.876 E40.77902
G1 X116.339 Y113.826 E40.78768
G1 X116.162 Y113.625 E40.81982
G1 X116.062 Y113.422 E40.84697
G1 X116.007 Y113.447 E40.85422
G1 X115.802 Y113.214 E40.89147
G1 X115.625 Y113.039 E40.92133
G1 X115.648 Y112.982 E40.92871
G1 X115.455 Y112.872 E40.95537
G1 X115.294 Y112.713 E40.98252
G1 X115.25 Y112.755 E40.98982
G1 X114.984 Y112.603 E41.02658
G1 X114.799 Y112.515 E41.05117
G1 X114.809 Y112.442 E41.06001
G1 X114.54 Y112.391 E41.09287
G1 X114.356 Y112.303 E41.11734
G1 X114.329 Y112.351 E41.12395
G1 X114.012 Y112.291 E41.16266
G1 X113.801 Y112.266 E41.18816
G1 X113.784 Y112.186 E41.19798
G1 X113.51 Y112.231 E41.2313
G1 X113.299 Y112.206 E41.25679
G1 X113.291 Y112.267 E41.26418
G1 X112.782 Y112.351 E41.32608
G1 X112.743 Y112.285 E41.33528
G1 X112.548 Y112.39 E41.36186
G1 X112.282 Y112.434 E41.39421
G0 F3600 X112.755 Y112.761
;TYPE:WALL-OUTER
G1 F1800 X112.76 Y112.786 E41.39727
G1 X112.798 Y112.976 E41.42052
G1 X112.791 Y113.019 E41.42575
G1 X112.767 Y113.039 E41.4295
G1 X112.733 Y113.037
G1 X112.715 Y113.026
G1 X112.609 Y112.846
G1 X112.594 Y112.82
G1 X111.955 Y113.165 E41.51664
G1 X111.972 Y113.194 E41.52068
G1 X112.064 Y113.352 E41.54262
G1 X112.073 Y113.397 E41.54812
G1 X112.056 Y113.423 E41.55185
G1 X112.023 Y113.432
G1 X112.014 Y113.426
