;FLAVOR:UltiGCode
;TIME:1383
;MATERIAL:953
;MATERIAL2:0
;NOZZLE_DIAMETER:0.4
;Generated with Cura_SteamEngine 2.6.1

;LAYER_COUNT:208
;LAYER:0
M107
G0 F3600 X104.605 Y100.588 Z0.3
;TYPE:SKIRT
G1 F1800 X105.06 Y100.208 E0.07114
G1 X105.563 Y99.894 E0.14229
G1 X106.103 Y99.649 E0.21345
G1 X106.672 Y99.48 E0.28468
G1 X107.257 Y99.389 E0.35572
G1 X107.642 Y99.372 E0.40197
G1 X115.36 Y99.373 E1.32813
G1 X115.951 Y99.413 E1.39921
G1 X116.532 Y99.532 E1.47038
G1 X117.092 Y99.728 E1.54157
G1 X117.62 Y99.998 E1.61274
G1 X118.107 Y100.336 E1.68387
G1 X118.544 Y100.737 E1.75505
G1 X118.923 Y101.193 E1.8262
G1 X119.238 Y101.695 E1.89732
G1 X119.482 Y102.236 E1.96853
G1 X119.651 Y102.804 E2.03965
G1 X119.742 Y103.39 E2.11081
G1 X119.759 Y103.773 E2.15682
G1 X119.759 Y119.228 E4.01142
G1 X119.719 Y119.82 E4.08262
G1 X119.6 Y120.4 E4.15367
G1 X119.404 Y120.96 E4.22486
G1 X119.134 Y121.488 E4.29603
G1 X118.796 Y121.975 E4.36716
G1 X118.395 Y122.412 E4.43834
G1 X117.94 Y122.792 E4.50947
G1 X117.437 Y123.106 E4.58063
G1 X116.897 Y123.351 E4.65179
G1 X116.328 Y123.52 E4.72301
G1 X115.743 Y123.611 E4.79406
G1 X115.359 Y123.628 E4.84018
G1 X107.641 Y123.628 E5.76634
G1 X107.049 Y123.588 E5.83755
G1 X106.469 Y123.469 E5.9086
G1 X105.909 Y123.273 E5.97979
G1 X105.381 Y123.003 E6.05096
G1 X104.894 Y122.665 E6.12209
G1 X104.457 Y122.264 E6.19326
G1 X104.077 Y121.809 E6.2644
G1 X103.763 Y121.306 E6.33556
G1 X103.518 Y120.766 E6.40672
G1 X103.349 Y120.197 E6.47794
G1 X103.258 Y119.612 E6.54899
G1 X103.241 Y119.228 E6.59511
G1 X103.241 Y103.772 E8.44983
G1 X103.281 Y103.18 E8.52103
G1 X103.4 Y102.6 E8.59208
G1 X103.596 Y102.04 E8.66328
G1 X103.866 Y101.512 E8.73445
G1 X104.204 Y101.025 E8.80558
G1 X104.605 Y100.588 E8.87675
G0 F3600 X104.997 Y100.77
G1 F1800 X105.447 Y100.428 E8.94458
G1 X105.94 Y100.152 E9.01238
G1 X106.468 Y99.948 E9.0803
G1 X107.018 Y99.821 E9.14804
G1 X107.642 Y99.772 E9.22315
G1 X115.36 Y99.773 E10.14931
G1 X115.923 Y99.813 E10.21704
G1 X116.476 Y99.932 E10.28492
G1 X117.006 Y100.128 E10.35273
G1 X117.504 Y100.397 E10.42065
G1 X117.958 Y100.733 E10.48843
G1 X118.361 Y101.13 E10.55631
G1 X118.704 Y101.579 E10.62411
G1 X118.98 Y102.073 E10.69202
G1 X119.183 Y102.6 E10.75979
G1 X119.31 Y103.151 E10.82764
G1 X119.359 Y103.773 E10.90251
G1 X119.359 Y119.228 E12.75711
G1 X119.319 Y119.792 E12.82496
G1 X119.2 Y120.345 E12.89284
G1 X119.004 Y120.875 E12.96065
G1 X118.736 Y121.372 E13.02841
G1 X118.4 Y121.827 E13.09629
G1 X118.003 Y122.23 E13.16417
G1 X117.553 Y122.572 E13.23199
G1 X117.06 Y122.848 E13.29979
G1 X116.532 Y123.052 E13.36772
G1 X115.982 Y123.179 E13.43546
G1 X115.359 Y123.228 E13.51045
G1 X107.641 Y123.228 E14.43661
G1 X107.077 Y123.188 E14.50446
G1 X106.524 Y123.069 E14.57234
G1 X105.994 Y122.873 E14.64015
G1 X105.497 Y122.605 E14.7079
G1 X105.042 Y122.269 E14.77578
G1 X104.639 Y121.872 E14.84366
G1 X104.297 Y121.422 E14.91149
G1 X104.021 Y120.929 E14.97929
G1 X103.817 Y120.401 E15.04721
G1 X103.69 Y119.851 E15.11495
G1 X103.641 Y119.228 E15.18994
G1 X103.641 Y103.772 E17.04466
G1 X103.681 Y103.208 E17.11251
G1 X103.8 Y102.655 E17.18039
G1 X103.996 Y102.125 E17.2482
G1 X104.264 Y101.628 E17.31596
G1 X104.6 Y101.173 E17.38383
G1 X104.997 Y100.77 E17.45171
G0 F3600 X105.388 Y100.964
G1 F1800 X105.83 Y100.661 E17.51602
G1 X106.313 Y100.426 E17.58048
G1 X106.824 Y100.266 E17.64473
G1 X107.354 Y100.183 E17.70911
G1 X107.641 Y100.172 E17.74357
G1 X115.359 Y100.173 E18.66973
G1 X115.894 Y100.213 E18.73411
G1 X116.417 Y100.332 E18.79848
G1 X116.917 Y100.527 E18.86288
G1 X117.381 Y100.795 E18.92718
G1 X117.801 Y101.128 E18.9915
G1 X118.167 Y101.52 E19.05585
G1 X118.471 Y101.963 E19.12033
G1 X118.705 Y102.445 E19.18462
G1 X118.865 Y102.957 E19.24899
G1 X118.948 Y103.487 E19.31337
G1 X118.959 Y103.773 E19.34771
G1 X118.959 Y119.228 E21.20231
G1 X118.919 Y119.763 E21.26669
G1 X118.8 Y120.286 E21.33106
G1 X118.605 Y120.785 E21.39535
G1 X118.337 Y121.25 E21.45975
G1 X118.004 Y121.67 E21.52407
G1 X117.612 Y122.036 E21.58843
G1 X117.17 Y122.339 E21.65273
G1 X116.687 Y122.574 E21.71719
G1 X116.176 Y122.734 E21.78144
G1 X115.646 Y122.817 E21.84582
G1 X115.359 Y122.828 E21.88028
G1 X107.641 Y122.828 E22.80644
G1 X107.106 Y122.788 E22.87082
G1 X106.583 Y122.669 E22.93519
G1 X106.084 Y122.474 E22.99948
G1 X105.619 Y122.206 E23.06388
G1 X105.199 Y121.873 E23.1282
G1 X104.833 Y121.481 E23.19256
G1 X104.53 Y121.039 E23.25686
G1 X104.295 Y120.556 E23.32132
G1 X104.135 Y120.045 E23.38558
G1 X104.052 Y119.515 E23.44995
G1 X104.041 Y119.228 E23.48442
G1 X104.041 Y103.772 E25.33914
G1 X104.081 Y103.237 E25.40351
G1 X104.2 Y102.714 E25.46788
G1 X104.395 Y102.215 E25.53217
G1 X104.663 Y101.75 E25.59657
G1 X104.996 Y101.33 E25.66089
G1 X105.388 Y100.964 E25.72525
G0 F3600 X105.777 Y101.171
G1 F1800 X106.21 Y100.91 E25.78592
G1 X106.678 Y100.72 E25.84653
G1 X107.171 Y100.607 E25.90722
G1 X107.641 Y100.572 E25.96378
G1 X115.359 Y100.573 E26.88994
G1 X115.863 Y100.613 E26.95061
G1 X116.355 Y100.732 E27.01135
G1 X116.821 Y100.927 E27.07197
G1 X117.251 Y101.193 E27.13265
G1 X117.634 Y101.523 E27.19331
G1 X117.96 Y101.909 E27.25394
G1 X118.221 Y102.342 E27.31461
G1 X118.411 Y102.811 E27.37533
G1 X118.524 Y103.303 E27.43591
G1 X118.559 Y103.773 E27.49247
G1 X118.559 Y119.228 E29.34707
G1 X118.519 Y119.732 E29.40774
G1 X118.4 Y120.223 E29.46836
G1 X118.206 Y120.69 E29.52905
G1 X117.94 Y121.12 E29.58972
G1 X117.61 Y121.503 E29.65039
G1 X117.223 Y121.829 E29.71111
G1 X116.79 Y122.09 E29.77178
G1 X116.322 Y122.28 E29.83239
G1 X115.829 Y122.393 E29.89309
G1 X115.359 Y122.428 E29.94964
G1 X107.641 Y122.428 E30.8758
G1 X107.137 Y122.388 E30.93647
G1 X106.646 Y122.269 E30.9971
G1 X106.179 Y122.075 E31.05778
G1 X105.749 Y121.809 E31.11846
G1 X105.366 Y121.479 E31.17912
G1 X105.04 Y121.092 E31.23984
G1 X104.779 Y120.659 E31.30051
G1 X104.589 Y120.191 E31.36112
G1 X104.476 Y119.698 E31.42182
G1 X104.441 Y119.228 E31.47838
G1 X104.441 Y103.772 E33.3331
G1 X104.481 Y103.268 E33.39377
G1 X104.6 Y102.777 E33.45439
G1 X104.794 Y102.31 E33.51507
G1 X105.06 Y101.88 E33.57575
G1 X105.39 Y101.497 E33.63642
G1 X105.777 Y101.171 E33.69714
G10
G0 F3600 X108.246 Y103.098
G0 X108.246 Y104.377
G0 X108.302 Y104.433
G0 X108.232 Y104.363
;TYPE:WALL-INNER
G11
G1 F1800 X114.768 Y104.363 E34.48146
G1 X114.768 Y118.637 E36.19434
G1 X108.232 Y118.637 E36.97866
G1 X108.232 Y104.363 E38.69154
G0 F3600 X107.832 Y103.963
;TYPE:WALL-OUTER
G1 F1800 X115.168 Y103.963 E39.57186
G1 X115.168 Y119.037 E41.38074
G1 X107.832 Y119.037 E42.26106
G1 X107.832 Y103.963 E44.06994
G0 F3600 X108.032 Y103.963
G0 X108.503 Y104.543
;TYPE:SKIN
G1 F1800 X114.588 Y110.628 E45.1026
G1 X114.658 Y110.698
G0 F3600 X114.588 Y111.193
G1 F1800 X108.41 Y105.016 E46.15095
G1 X108.34 Y104.946
G0 F3600 X108.41 Y105.582
G1 F1800 X114.588 Y111.759 E47.19931
G1 X114.658 Y111.829
G0 F3600 X114.588 Y112.325
G1 F1800 X108.41 Y106.148 E48.24767
G1 X108.34 Y106.078
G0 F3600 X108.41 Y106.713
G1 F1800 X114.588 Y112.891 E49.29611
G1 X114.658 Y112.961
G0 F3600 X114.588 Y113.456
G1 F1800 X108.41 Y107.279 E50.34446
G1 X108.34 Y107.209
G0 F3600 X108.41 Y107.845
G1 F1800 X114.588 Y114.022 E51.39282
G1 X114.658 Y114.092
G0 F3600 X114.588 Y114.588
G1 F1800 X108.41 Y108.41 E52.44126
G1 X108.34 Y108.34
G0 F3600 X108.41 Y108.976
G1 F1800 X114.588 Y115.153 E53.48962
G1 X114.658 Y115.223
G0 F3600 X114.588 Y115.719
G1 F1800 X108.41 Y109.542 E54.53797
G1 X108.34 Y109.472
G0 F3600 X108.41 Y110.107
G1 F1800 X114.588 Y116.285 E55.58642
G1 X114.658 Y116.355
G0 F3600 X114.588 Y116.85
G1 F1800 X108.41 Y110.673 E56.63477
G1 X108.34 Y110.603
G0 F3600 X108.41 Y111.239
G1 F1800 X114.588 Y117.416 E57.68313
G1 X114.658 Y117.486
G0 F3600 X114.588 Y117.982
G1 F1800 X108.411 Y111.805 E58.7314
G1 X108.341 Y111.735
G0 F3600 X108.411 Y112.371
G1 F1800 X114.496 Y118.455 E59.76397
G1 X114.566 Y118.525
G0 F3600 X113.93 Y118.455
G1 F1800 X108.411 Y112.936 E60.70058
G1 X108.341 Y112.866
G0 F3600 X108.411 Y113.502
G1 F1800 X113.364 Y118.455 E61.54113
G1 X113.434 Y118.525
G0 F3600 X112.799 Y118.455
G1 F1800 X108.411 Y114.068 E62.28572
G1 X108.341 Y113.998
G0 F3600 X108.411 Y114.634
G1 F1800 X112.233 Y118.455 E62.93425
G1 X112.303 Y118.525
G0 F3600 X111.667 Y118.455
G1 F1800 X108.411 Y115.199 E63.48681
G1 X108.341 Y115.129
G0 F3600 X108.411 Y115.765
G1 F1800 X111.102 Y118.455 E63.9434
G1 X111.172 Y118.525
G0 F3600 X110.536 Y118.455
G1 F1800 X108.411 Y116.331 E64.30394
G1 X108.341 Y116.261
G0 F3600 X108.411 Y116.896
G1 F1800 X109.97 Y118.455 E64.56851
G1 X110.04 Y118.525
G0 F3600 X109.404 Y118.455
G1 F1800 X108.411 Y117.462 E64.73703
G1 X108.341 Y117.392
G0 F3600 X108.411 Y118.028
G1 F1800 X108.839 Y118.455 E64.80958
G0 F3600 X114.588 Y110.062
G1 F1800 X109.069 Y104.543 E65.74618
G1 X108.999 Y104.473
G0 F3600 X109.634 Y104.543
G1 F1800 X114.588 Y109.496 E66.58682
G1 X114.658 Y109.566
G0 F3600 X114.588 Y108.931
G1 F1800 X110.2 Y104.543 E67.33149
G1 X110.13 Y104.473
G0 F3600 X110.766 Y104.543
G1 F1800 X114.588 Y108.365 E67.9801
G1 X114.658 Y108.435
G0 F3600 X114.588 Y107.799
G1 F1800 X111.331 Y104.543 E68.53275
G1 X111.261 Y104.473
G0 F3600 X111.897 Y104.543
G1 F1800 X114.588 Y107.234 E68.98943
G1 X114.658 Y107.304
G0 F3600 X114.588 Y106.668
G1 F1800 X112.463 Y104.543 E69.35005
G1 X112.393 Y104.473
G0 F3600 X113.028 Y104.543
G1 F1800 X114.588 Y106.102 E69.61471
G1 X114.658 Y106.172
G0 F3600 X114.588 Y105.537
G1 F1800 X113.594 Y104.543 E69.78339
G1 X113.524 Y104.473
G0 F3600 X114.16 Y104.543
G1 F1800 X114.588 Y104.971 E69.85603
G0 F3600 X114.368 Y104.971
G0 X108.302 Y104.433
G0 X108.232 Y104.363
;TIME_ELAPSED:23.614815
;LAYER:1
M106 S255
G0 F5400 X108.232 Y104.363 Z0.4
;TYPE:WALL-INNER
G1 F2700 X114.768 Y104.363 E70.11747
G1 X114.768 Y118.637 E70.68843
G1 X108.232 Y118.637 E70.94987
G1 X108.232 Y104.363 E71.52083
G0 F5400 X107.832 Y103.963
;TYPE:WALL-OUTER
G1 F1800 X115.168 Y103.963 E71.81427
G1 X115.168 Y119.037 E72.41723
G1 X107.832 Y119.037 E72.71067
G1 X107.832 Y103.963 E73.31363
G0 F5400 X108.032 Y103.963
G0 X108.302 Y104.433
G0 X108.72 Y104.542
;TYPE:SKIN
G1 F1800 X108.411 Y104.851 E73.33111
G0 F5400 X108.411 Y105.417
G1 F1800 X109.286 Y104.542 E73.38061
G1 X109.356 Y104.472
G0 F5400 X109.851 Y104.542
G1 F1800 X108.411 Y105.983 E73.46209
G1 X108.341 Y106.053
G0 F5400 X108.411 Y106.548
G1 F1800 X110.417 Y104.542 E73.57557
G1 X110.487 Y104.472
G0 F5400 X110.983 Y104.542
G1 F1800 X108.411 Y107.114 E73.72106
G1 X108.341 Y107.184
G0 F5400 X108.411 Y107.68
G1 F1800 X111.548 Y104.542 E73.89855
G1 X111.618 Y104.472
G0 F5400 X112.114 Y104.542
G1 F1800 X108.411 Y108.246 E74.10805
G1 X108.341 Y108.316
G0 F5400 X108.411 Y108.811
G1 F1800 X112.68 Y104.542 E74.34954
G1 X112.75 Y104.472
G0 F5400 X113.245 Y104.542
G1 F1800 X108.411 Y109.377 E74.62302
G1 X108.341 Y109.447
G0 F5400 X108.411 Y109.943
G1 F1800 X113.811 Y104.542 E74.92852
G1 X113.881 Y104.472
G0 F5400 X114.377 Y104.542
G1 F1800 X108.411 Y110.508 E75.26601
G1 X108.341 Y110.578
G0 F5400 X108.411 Y111.074
G1 F1800 X114.587 Y104.898 E75.61537
G1 X114.657 Y104.828
G0 F5400 X114.587 Y105.464
G1 F1800 X108.412 Y111.639 E75.96469
G1 X108.342 Y111.709
G0 F5400 X108.412 Y112.205
G1 F1800 X114.587 Y106.029 E76.31402
G1 X114.657 Y105.959
G0 F5400 X114.587 Y106.595
G1 F1800 X108.412 Y112.77 E76.66333
G1 X108.342 Y112.84
G0 F5400 X108.412 Y113.336
G1 F1800 X114.587 Y107.161 E77.01265
G1 X114.657 Y107.091
G0 F5400 X114.587 Y107.727
G1 F1800 X108.412 Y113.902 E77.36196
G1 X108.342 Y113.972
G0 F5400 X108.412 Y114.467
G1 F1800 X114.587 Y108.292 E77.71127
G1 X114.657 Y108.222
G0 F5400 X114.587 Y108.858
G1 F1800 X108.412 Y115.033 E78.06058
G1 X108.342 Y115.103
G0 F5400 X108.412 Y115.599
G1 F1800 X114.587 Y109.424 E78.40989
G1 X114.657 Y109.354
G0 F5400 X114.587 Y109.989
G1 F1800 X108.412 Y116.164 E78.7592
G1 X108.342 Y116.234
G0 F5400 X108.412 Y116.73
G1 F1800 X114.587 Y110.555 E79.10851
G1 X114.657 Y110.485
G0 F5400 X114.587 Y111.121
G1 F1800 X108.412 Y117.296 E79.45782
G1 X108.342 Y117.366
G0 F5400 X108.412 Y117.861
G1 F1800 X114.587 Y111.686 E79.80713
G1 X114.657 Y111.616
G0 F5400 X114.587 Y112.252
G1 F1800 X108.412 Y118.427 E80.15644
G1 X108.342 Y118.497
G0 F5400 X108.949 Y118.455
G1 F1800 X114.587 Y112.818 E80.47535
G1 X114.657 Y112.748
G0 F5400 X114.587 Y113.383
G1 F1800 X109.515 Y118.455 E80.76226
G1 X109.445 Y118.525
G0 F5400 X110.08 Y118.455
G1 F1800 X114.587 Y113.949 E81.01719
G1 X114.657 Y113.879
G0 F5400 X114.587 Y114.515
G1 F1800 X110.646 Y118.455 E81.2401
G1 X110.576 Y118.525
G0 F5400 X111.212 Y118.455
G1 F1800 X114.587 Y115.08 E81.43102
G1 X114.657 Y115.01
G0 F5400 X114.587 Y115.646
G1 F1800 X111.778 Y118.455 E81.58992
G1 X111.708 Y118.525
G0 F5400 X112.343 Y118.455
G1 F1800 X114.587 Y116.212 E81.71683
G1 X114.657 Y116.142
G0 F5400 X114.587 Y116.777
G1 F1800 X112.909 Y118.455 E81.81175
G1 X112.839 Y118.525
G0 F5400 X113.475 Y118.455
G1 F1800 X114.587 Y117.343 E81.87466
G1 X114.657 Y117.273
G0 F5400 X114.587 Y117.909
G1 F1800 X114.04 Y118.455 E81.90557
G0 F5400 X114.04 Y118.237
G0 X108.302 Y104.433
G0 X108.232 Y104.363
;TIME_ELAPSED:34.478773
;LAYER:2
G0 F7200 X108.232 Y104.363 Z0.5
;TYPE:WALL-INNER
G1 F3600 X114.768 Y104.363 E82.16701
G1 X114.768 Y118.637 E82.73797
G1 X108.232 Y118.637 E82.99941
G1 X108.232 Y104.363 E83.57037
G0 F7200 X107.832 Y103.963
;TYPE:WALL-OUTER
G1 F1800 X115.168 Y103.963 E83.86381
G1 X115.168 Y119.037 E84.46677
G1 X107.832 Y119.037 E84.76021
G1 X107.832 Y103.963 E85.36317
G0 F7200 X108.032 Y103.963
G0 X108.503 Y104.543
;TYPE:SKIN
G1 F1800 X114.588 Y110.628 E85.70739
G1 X114.658 Y110.698
G0 F7200 X114.588 Y111.193
G1 F1800 X108.41 Y105.016 E86.05684
G1 X108.34 Y104.946
G0 F7200 X108.41 Y105.582
G1 F1800 X114.588 Y111.759 E86.40629
G1 X114.658 Y111.829
G0 F7200 X114.588 Y112.325
G1 F1800 X108.41 Y106.148 E86.75575
G1 X108.34 Y106.078
G0 F7200 X108.41 Y106.713
G1 F1800 X114.588 Y112.891 E87.10523
G1 X114.658 Y112.961
G0 F7200 X114.588 Y113.456
G1 F1800 X108.41 Y107.279 E87.45468
G1 X108.34 Y107.209
G0 F7200 X108.41 Y107.845
G1 F1800 X114.588 Y114.022 E87.80413
G1 X114.658 Y114.092
G0 F7200 X114.588 Y114.588
G1 F1800 X108.41 Y108.41 E88.15361
G1 X108.34 Y108.34
G0 F7200 X108.41 Y108.976
G1 F1800 X114.588 Y115.153 E88.50306
G1 X114.658 Y115.223
G0 F7200 X114.588 Y115.719
G1 F1800 X108.41 Y109.542 E88.85252
G1 X108.34 Y109.472
G0 F7200 X108.41 Y110.107
G1 F1800 X114.588 Y116.285 E89.202
G1 X114.658 Y116.355
G0 F7200 X114.588 Y116.85
G1 F1800 X108.41 Y110.673 E89.55145
G1 X108.34 Y110.603
G0 F7200 X108.41 Y111.239
G1 F1800 X114.588 Y117.416 E89.9009
G1 X114.658 Y117.486
G0 F7200 X114.588 Y117.982
G1 F1800 X108.411 Y111.805 E90.25032
G1 X108.341 Y111.735
G0 F7200 X108.411 Y112.371
G1 F1800 X114.496 Y118.455 E90.59452
G1 X114.566 Y118.525
G0 F7200 X113.93 Y118.455
G1 F1800 X108.411 Y112.936 E90.90672
G1 X108.341 Y112.866
G0 F7200 X108.411 Y113.502
G1 F1800 X113.364 Y118.455 E91.1869
G1 X113.434 Y118.525
G0 F7200 X112.799 Y118.455
G1 F1800 X108.411 Y114.068 E91.4351
G1 X108.341 Y113.998
G0 F7200 X108.411 Y114.634
G1 F1800 X112.233 Y118.455 E91.65127
G1 X112.303 Y118.525
G0 F7200 X111.667 Y118.455
G1 F1800 X108.411 Y115.199 E91.83546
G1 X108.341 Y115.129
G0 F7200 X108.411 Y115.765
G1 F1800 X111.102 Y118.455 E91.98766
G1 X111.172 Y118.525
G0 F7200 X110.536 Y118.455
G1 F1800 X108.411 Y116.331 E92.10784
G1 X108.341 Y116.261
G0 F7200 X108.411 Y116.896
G1 F1800 X109.97 Y118.455 E92.19603
G1 X110.04 Y118.525
G0 F7200 X109.404 Y118.455
G1 F1800 X108.411 Y117.462 E92.2522
G1 X108.341 Y117.392
G0 F7200 X108.411 Y118.028
G1 F1800 X108.839 Y118.455 E92.27638
G0 F7200 X114.588 Y110.062
G1 F1800 X109.069 Y104.543 E92.58859
G1 X108.999 Y104.473
G0 F7200 X109.634 Y104.543
G1 F1800 X114.588 Y109.496 E92.8688
G1 X114.658 Y109.566
G0 F7200 X114.588 Y108.931
G1 F1800 X110.2 Y104.543 E93.11702
G1 X110.13 Y104.473
G0 F7200 X110.766 Y104.543
G1 F1800 X114.588 Y108.365 E93.33323
G1 X114.658 Y108.435
G0 F7200 X114.588 Y107.799
G1 F1800 X111.331 Y104.543 E93.51744
G1 X111.261 Y104.473
G0 F7200 X111.897 Y104.543
G1 F1800 X114.588 Y107.234 E93.66967
G1 X114.658 Y107.304
G0 F7200 X114.588 Y106.668
