;FLAVOR:UltiGCode
;TIME:619
;MATERIAL:828
;MATERIAL2:0
;NOZZLE_DIAMETER:0.4
;Generated with Cura_SteamEngine 2.6.1

;LAYER_COUNT:61
;LAYER:0
M107
G0 F3600 X98.865 Y101.689 Z0.3
;TYPE:SKIRT
G1 F1800 X99.315 Y101.347 E0.06783
G1 X99.808 Y101.071 E0.13563
G1 X100.336 Y100.867 E0.20355
G1 X100.886 Y100.74 E0.27129
G1 X101.509 Y100.691 E0.34628
G1 X121.491 Y100.692 E2.74412
G1 X122.055 Y100.732 E2.81197
G1 X122.608 Y100.851 E2.87985
G1 X123.138 Y101.047 E2.94766
G1 X123.636 Y101.315 E3.01552
G1 X124.09 Y101.652 E3.08337
G1 X124.493 Y102.048 E3.15117
G1 X124.836 Y102.498 E3.21907
G1 X125.111 Y102.991 E3.28681
G1 X125.315 Y103.519 E3.35473
G1 X125.442 Y104.07 E3.42259
G1 X125.491 Y104.692 E3.49746
G1 X125.491 Y118.673 E5.17518
G1 X125.451 Y119.237 E5.24303
G1 X125.332 Y119.79 E5.31091
G1 X125.136 Y120.32 E5.37872
G1 X124.868 Y120.817 E5.44648
G1 X124.532 Y121.272 E5.51435
G1 X124.135 Y121.675 E5.58223
G1 X123.685 Y122.017 E5.65006
G1 X123.192 Y122.293 E5.71786
G1 X122.664 Y122.497 E5.78578
G1 X122.114 Y122.624 E5.85352
G1 X121.491 Y122.673 E5.92851
G1 X101.509 Y122.673 E8.32635
G1 X100.945 Y122.633 E8.3942
G1 X100.392 Y122.514 E8.46208
G1 X99.862 Y122.318 E8.52989
G1 X99.365 Y122.05 E8.59765
G1 X98.91 Y121.714 E8.66552
G1 X98.507 Y121.317 E8.73341
G1 X98.165 Y120.867 E8.80123
G1 X97.889 Y120.374 E8.86903
G1 X97.685 Y119.846 E8.93696
G1 X97.558 Y119.296 E9.00469
G1 X97.509 Y118.673 E9.07968
G1 X97.509 Y104.691 E10.75752
G1 X97.549 Y104.127 E10.82537
G1 X97.668 Y103.574 E10.89325
G1 X97.864 Y103.044 E10.96106
G1 X98.132 Y102.547 E11.02882
G1 X98.468 Y102.092 E11.09669
G1 X98.865 Y101.689 E11.16458
G0 F3600 X99.256 Y101.883
G1 F1800 X99.698 Y101.58 E11.22888
G1 X100.181 Y101.345 E11.29334
G1 X100.692 Y101.185 E11.3576
G1 X101.222 Y101.102 E11.42197
G1 X101.509 Y101.091 E11.45644
G1 X121.491 Y101.092 E13.85428
G1 X122.026 Y101.132 E13.91866
G1 X122.549 Y101.251 E13.98302
G1 X123.048 Y101.446 E14.04731
G1 X123.513 Y101.714 E14.11171
G1 X123.933 Y102.047 E14.17603
G1 X124.299 Y102.439 E14.24039
G1 X124.603 Y102.881 E14.30476
G1 X124.837 Y103.364 E14.36917
G1 X124.997 Y103.876 E14.43354
G1 X125.08 Y104.405 E14.49779
G1 X125.091 Y104.692 E14.53226
G1 X125.091 Y118.673 E16.20998
G1 X125.051 Y119.208 E16.27436
G1 X124.932 Y119.731 E16.33872
G1 X124.737 Y120.23 E16.40301
G1 X124.469 Y120.695 E16.46742
G1 X124.136 Y121.115 E16.53174
G1 X123.744 Y121.481 E16.59609
G1 X123.302 Y121.784 E16.6604
G1 X122.819 Y122.019 E16.72486
G1 X122.308 Y122.179 E16.78911
G1 X121.778 Y122.262 E16.85349
G1 X121.491 Y122.273 E16.88795
G1 X101.509 Y122.273 E19.28579
G1 X100.974 Y122.233 E19.35017
G1 X100.451 Y122.114 E19.41453
G1 X99.952 Y121.919 E19.47882
G1 X99.487 Y121.651 E19.54323
G1 X99.067 Y121.318 E19.60755
G1 X98.701 Y120.926 E19.6719
G1 X98.398 Y120.484 E19.73621
G1 X98.163 Y120.001 E19.80067
G1 X98.003 Y119.49 E19.86492
G1 X97.92 Y118.96 E19.9293
G1 X97.909 Y118.673 E19.96376
G1 X97.909 Y104.691 E21.6416
G1 X97.949 Y104.156 E21.70598
G1 X98.068 Y103.633 E21.77035
G1 X98.263 Y103.134 E21.83464
G1 X98.531 Y102.669 E21.89904
G1 X98.864 Y102.249 E21.96336
G1 X99.256 Y101.883 E22.02772
G0 F3600 X99.645 Y102.09
G1 F1800 X100.078 Y101.829 E22.08838
G1 X100.546 Y101.639 E22.149
G1 X101.039 Y101.526 E22.20969
G1 X101.509 Y101.491 E22.26625
G1 X121.491 Y101.492 E24.66409
G1 X121.995 Y101.532 E24.72476
G1 X122.487 Y101.651 E24.7855
G1 X122.953 Y101.846 E24.84612
G1 X123.383 Y102.111 E24.90673
G1 X123.766 Y102.442 E24.96748
G1 X124.092 Y102.828 E25.0281
G1 X124.353 Y103.261 E25.08877
G1 X124.543 Y103.73 E25.1495
G1 X124.656 Y104.222 E25.21007
G1 X124.691 Y104.692 E25.26663
G1 X124.691 Y118.673 E26.94435
G1 X124.651 Y119.177 E27.00502
G1 X124.532 Y119.668 E27.06565
G1 X124.338 Y120.135 E27.12633
G1 X124.072 Y120.565 E27.187
G1 X123.742 Y120.948 E27.24767
G1 X123.355 Y121.274 E27.30839
G1 X122.922 Y121.535 E27.36906
G1 X122.454 Y121.725 E27.42967
G1 X121.961 Y121.838 E27.49037
G1 X121.491 Y121.873 E27.54692
G1 X101.509 Y121.873 E29.94476
G1 X101.005 Y121.833 E30.00543
G1 X100.514 Y121.714 E30.06606
G1 X100.047 Y121.52 E30.12674
G1 X99.617 Y121.254 E30.18742
G1 X99.234 Y120.924 E30.24808
G1 X98.908 Y120.537 E30.30881
G1 X98.647 Y120.104 E30.36948
G1 X98.457 Y119.636 E30.43009
G1 X98.344 Y119.143 E30.49078
G1 X98.309 Y118.673 E30.54734
G1 X98.309 Y104.691 E32.22518
G1 X98.349 Y104.187 E32.28585
G1 X98.468 Y103.696 E32.34647
G1 X98.662 Y103.229 E32.40716
G1 X98.928 Y102.799 E32.46783
G1 X99.258 Y102.416 E32.5285
G1 X99.645 Y102.09 E32.58922
G10
G0 F3600 X102.114 Y104.017
G0 X102.114 Y105.296
G0 X102.17 Y105.352
G0 X102.1 Y105.282
;TYPE:WALL-INNER
G11
G1 F1800 X120.9 Y105.282 E34.84522
G1 X120.9 Y118.082 E36.38122
G1 X102.1 Y118.082 E38.63722
G1 X102.1 Y105.282 E40.17322
G0 F3600 X102.17 Y105.352
G0 X102.83 Y106.012
G0 X102.9 Y106.082
G1 F1800 X102.9 Y117.282 E41.51722
G1 X120.1 Y117.282 E43.58122
G1 X120.1 Y106.082 E44.92522
G1 X102.9 Y106.082 E46.98922
G0 F3600 X103.3 Y106.482
;TYPE:WALL-OUTER
G1 F1800 X103.3 Y116.882 E48.23722
G1 X111.282 Y116.882 E49.19506
G1 X111.282 Y116.856 E49.19818
G1 X111.718 Y116.856 E49.2505
G1 X111.718 Y116.882 E49.25362
G1 X119.7 Y116.882 E50.21146
G1 X119.7 Y106.482 E51.45946
G1 X111.718 Y106.482 E52.4173
G1 X111.718 Y106.508 E52.42042
G1 X111.282 Y106.508 E52.47274
G1 X111.282 Y106.482 E52.47586
G1 X103.3 Y106.482 E53.4337
G0 F3600 X103.3 Y106.682
G0 X102.8 Y106.682
G0 X102.17 Y105.352
G0 X101.7 Y104.882
G1 F1800 X121.3 Y104.882 E55.7857
G1 X121.3 Y118.482 E57.4177
G1 X101.7 Y118.482 E59.7697
G1 X101.7 Y104.882 E61.4017
G0 F3600 X101.9 Y104.882
G0 X102.17 Y105.352
G0 X102.279 Y105.673
;TYPE:SKIN
G1 F1800 X102.719 Y106.114 E61.47645
G0 F3600 X102.853 Y105.681
G1 F1800 X103.418 Y105.681 E61.55103
G1 X103.984 Y105.681 E61.62575
G1 X104.55 Y105.681 E61.70046
G1 X105.115 Y105.681 E61.77504
G1 X105.681 Y105.681 E61.84975
G1 X106.247 Y105.681 E61.92446
G1 X106.812 Y105.681 E61.99904
G1 X107.378 Y105.681 E62.07375
G1 X107.944 Y105.681 E62.14847
G1 X108.509 Y105.681 E62.22305
G1 X109.075 Y105.681 E62.29776
G1 X109.641 Y105.681 E62.37247
G1 X110.206 Y105.681 E62.44705
G1 X110.772 Y105.681 E62.52176
G1 X111.338 Y105.681 E62.59647
G1 X111.903 Y105.681 E62.67105
G1 X112.469 Y105.681 E62.74577
G1 X113.035 Y105.681 E62.82048
G1 X113.601 Y105.681 E62.89519
G1 X114.166 Y105.681 E62.96977
G1 X114.732 Y105.681 E63.04448
G1 X115.298 Y105.681 E63.11919
G1 X115.863 Y105.681 E63.19377
G1 X116.429 Y105.681 E63.26849
G1 X116.995 Y105.681 E63.3432
G1 X117.56 Y105.681 E63.41778
G1 X118.126 Y105.681 E63.49249
G1 X118.692 Y105.681 E63.5672
G1 X119.257 Y105.681 E63.64178
G1 X119.823 Y105.681 E63.71649
G0 F3600 X120.498 Y106.356
G1 F1800 X120.498 Y106.922 E63.79138
G1 X120.498 Y107.488 E63.86626
G1 X120.498 Y108.053 E63.94101
G1 X120.498 Y108.619 E64.01589
G1 X120.498 Y109.185 E64.09077
G1 X120.498 Y109.75 E64.16552
G1 X120.498 Y110.316 E64.2404
G1 X120.498 Y110.882 E64.31528
G1 X120.498 Y111.447 E64.39003
G1 X120.498 Y112.013 E64.46492
G1 X120.498 Y112.579 E64.5398
G1 X120.498 Y113.144 E64.61455
G1 X120.498 Y113.71 E64.68943
G1 X120.498 Y114.276 E64.76431
G1 X120.498 Y114.842 E64.83919
G1 X120.498 Y115.407 E64.91394
G1 X120.498 Y115.973 E64.98882
G1 X120.498 Y116.539 E65.06371
G1 X120.498 Y117.104 E65.13846
G1 X120.498 Y117.67 E65.21334
G1 X119.944 Y117.681 E65.28781
G1 X119.378 Y117.681 E65.36252
G1 X118.812 Y117.681 E65.43723
G1 X118.247 Y117.681 E65.51181
G1 X117.681 Y117.681 E65.58653
G1 X117.115 Y117.681 E65.66124
G1 X116.55 Y117.681 E65.73582
G1 X115.984 Y117.681 E65.81053
G1 X115.418 Y117.681 E65.88524
G1 X114.853 Y117.681 E65.95982
G1 X114.287 Y117.681 E66.03453
G1 X113.721 Y117.681 E66.10925
G1 X113.156 Y117.681 E66.18383
G1 X112.59 Y117.681 E66.25854
G1 X112.024 Y117.681 E66.33325
G1 X111.459 Y117.681 E66.40783
G1 X110.893 Y117.681 E66.48254
G1 X110.327 Y117.681 E66.55725
G1 X109.761 Y117.681 E66.63197
G1 X109.196 Y117.681 E66.70655
G1 X108.63 Y117.681 E66.78126
G1 X108.064 Y117.681 E66.85597
G1 X107.499 Y117.681 E66.93055
G1 X106.933 Y117.681 E67.00526
G1 X106.367 Y117.681 E67.07997
G1 X105.802 Y117.681 E67.15455
G1 X105.236 Y117.681 E67.22927
G1 X104.67 Y117.681 E67.30398
G1 X104.105 Y117.681 E67.37856
G1 X103.539 Y117.681 E67.45327
G1 X102.973 Y117.681 E67.52798
G0 F3600 X102.499 Y117.207
G1 F1800 X102.499 Y116.641 E67.60269
G1 X102.499 Y116.075 E67.67741
G1 X102.499 Y115.51 E67.75199
G1 X102.499 Y114.944 E67.8267
G1 X102.499 Y114.378 E67.90141
G1 X102.499 Y113.813 E67.97599
G1 X102.499 Y113.247 E68.0507
G1 X102.499 Y112.681 E68.12541
G1 X102.499 Y112.116 E68.19999
G1 X102.499 Y111.55 E68.27471
G1 X102.499 Y110.984 E68.34942
G1 X102.499 Y110.419 E68.424
G1 X102.499 Y109.853 E68.49871
G1 X102.499 Y109.287 E68.57342
G1 X102.499 Y108.722 E68.648
G1 X102.499 Y108.156 E68.72271
G1 X102.499 Y107.59 E68.79743
G1 X102.499 Y107.024 E68.87214
G1 X102.499 Y106.459 E68.94672
G0 F3600 X102.279 Y106.239
G0 X102.279 Y117.552
G1 F1800 X102.628 Y117.901 E69.00594
G0 F3600 X102.872 Y106.054
G0 X120.169 Y105.461
G1 F1800 X120.719 Y106.011 E69.09928
G0 F3600 X120.5 Y106.011
G0 X102.17 Y105.352
G0 X102.1 Y105.282
;TIME_ELAPSED:23.229977
;LAYER:1
M106 S255
G0 F5400 X102.1 Y105.282 Z0.4
;TYPE:WALL-INNER
G1 F2700 X120.9 Y105.282 E69.85128
G1 X120.9 Y118.082 E70.36328
G1 X102.1 Y118.082 E71.11528
G1 X102.1 Y105.282 E71.62728
G0 F5400 X102.17 Y105.352
G0 X102.83 Y106.012
G0 X102.9 Y106.082
G1 F2700 X102.9 Y117.282 E72.07528
G1 X120.1 Y117.282 E72.76328
G1 X120.1 Y106.082 E73.21128
G1 X102.9 Y106.082 E73.89928
G0 F5400 X103.3 Y106.482
;TYPE:WALL-OUTER
G1 F1800 X103.3 Y116.882 E74.31528
G1 X111.282 Y116.882 E74.63456
G1 X111.282 Y116.845 E74.63604
G1 X111.718 Y116.845 E74.65348
G1 X111.718 Y116.882 E74.65496
G1 X119.7 Y116.882 E74.97424
G1 X119.7 Y106.482 E75.39024
G1 X111.718 Y106.482 E75.70952
G1 X111.718 Y106.519 E75.711
G1 X111.282 Y106.519 E75.72844
G1 X111.282 Y106.482 E75.72992
G1 X103.3 Y106.482 E76.0492
G0 F5400 X103.3 Y106.682
G0 X102.8 Y106.682
G0 X102.17 Y105.352
G0 X101.7 Y104.882
G1 F1800 X121.3 Y104.882 E76.8332
G1 X121.3 Y118.482 E77.3772
G1 X101.7 Y118.482 E78.1612
G1 X101.7 Y104.882 E78.7052
G0 F5400 X101.9 Y104.882
G0 X102.17 Y105.352
G0 X102.71 Y105.461
G0 X102.495 Y105.676
G1 F1800 X102.499 Y106.237 E78.72972
G1 X102.499 Y106.803 E78.75457
G1 X102.499 Y107.369 E78.77941
G1 X102.499 Y107.934 E78.80422
G1 X102.499 Y108.5 E78.82906
G1 X102.499 Y109.066 E78.85391
G1 X102.499 Y109.631 E78.87872
G1 X102.499 Y110.197 E78.90356
G1 X102.499 Y110.763 E78.92841
G1 X102.499 Y111.328 E78.95321
G1 X102.499 Y111.894 E78.97806
G1 X102.499 Y112.46 E79.00291
G1 X102.499 Y113.025 E79.02771
G1 X102.499 Y113.591 E79.05256
G1 X102.499 Y114.157 E79.07741
G1 X102.499 Y114.723 E79.10225
G1 X102.499 Y115.288 E79.12706
G1 X102.499 Y115.854 E79.15191
G1 X102.499 Y116.42 E79.17675
G1 X102.499 Y116.985 E79.20156
G1 X102.499 Y117.551 E79.2264
G1 X102.935 Y117.681 E79.25134
G1 X103.5 Y117.681 E79.27625
G1 X104.066 Y117.681 E79.30121
G1 X104.632 Y117.681 E79.32617
G1 X105.197 Y117.681 E79.35109
G1 X105.763 Y117.681 E79.37605
G1 X106.329 Y117.681 E79.40101
G1 X106.894 Y117.681 E79.42593
G1 X107.46 Y117.681 E79.45089
G1 X108.026 Y117.681 E79.47585
G1 X108.591 Y117.681 E79.50077
G1 X109.157 Y117.681 E79.52573
G1 X109.723 Y117.681 E79.55069
G1 X110.288 Y117.681 E79.5756
G1 X110.854 Y117.681 E79.60056
G1 X111.42 Y117.681 E79.62552
G1 X111.986 Y117.681 E79.65048
G1 X112.551 Y117.681 E79.6754
G1 X113.117 Y117.681 E79.70036
G1 X113.683 Y117.681 E79.72532
G1 X114.248 Y117.681 E79.75024
G1 X114.814 Y117.681 E79.7752
G1 X115.38 Y117.681 E79.80016
G1 X115.945 Y117.681 E79.82508
G1 X116.511 Y117.681 E79.85004
G1 X117.077 Y117.681 E79.875
G1 X117.642 Y117.681 E79.89991
G1 X118.208 Y117.681 E79.92488
G1 X118.774 Y117.681 E79.94984
G1 X119.339 Y117.681 E79.97475
G1 X119.905 Y117.681 E79.99971
G0 F5400 X120.498 Y117.088
G1 F1800 X120.498 Y116.522 E80.02467
G1 X120.498 Y115.957 E80.04959
G1 X120.498 Y115.391 E80.07455
G1 X120.498 Y114.825 E80.09951
G1 X120.498 Y114.26 E80.12443
G1 X120.498 Y113.694 E80.14939
G1 X120.498 Y113.128 E80.17435
G1 X120.498 Y112.563 E80.19927
G1 X120.498 Y111.997 E80.22423
G1 X120.498 Y111.431 E80.24919
G1 X120.498 Y110.865 E80.27415
G1 X120.498 Y110.3 E80.29906
G1 X120.498 Y109.734 E80.32402
G1 X120.498 Y109.168 E80.34898
G1 X120.498 Y108.603 E80.3739
G1 X120.498 Y108.037 E80.39886
G1 X120.498 Y107.471 E80.42382
G1 X120.498 Y106.906 E80.44874
G1 X120.498 Y106.34 E80.4737
G1 X120.498 Y105.774 E80.49866
G1 X120.026 Y105.681 E80.52353
G1 X119.46 Y105.681 E80.54844
G1 X118.895 Y105.681 E80.5733
G1 X118.329 Y105.681 E80.5982
G1 X117.763 Y105.681 E80.6231
G1 X117.198 Y105.681 E80.64796
G1 X116.632 Y105.681 E80.67287
G1 X116.066 Y105.681 E80.69777
G1 X115.501 Y105.681 E80.72263
G1 X114.935 Y105.681 E80.74754
G1 X114.369 Y105.681 E80.77244
G1 X113.803 Y105.681 E80.79734
G1 X113.238 Y105.681 E80.8222
G1 X112.672 Y105.681 E80.84711
G1 X112.106 Y105.681 E80.87201
G1 X111.541 Y105.681 E80.89687
G1 X110.975 Y105.681 E80.92178
G1 X110.409 Y105.681 E80.94668
G1 X109.844 Y105.681 E80.97154
G1 X109.278 Y105.681 E80.99644
G1 X108.712 Y105.681 E81.02135
G1 X108.147 Y105.681 E81.04621
G1 X107.581 Y105.681 E81.07111
G1 X107.015 Y105.681 E81.09602
G1 X106.45 Y105.681 E81.12088
G1 X105.884 Y105.681 E81.14578
G1 X105.318 Y105.681 E81.17068
G1 X104.753 Y105.681 E81.19554
G1 X104.187 Y105.681 E81.22045
G1 X103.621 Y105.681 E81.24535
G1 X103.055 Y105.681 E81.27026
G0 F5400 X102.835 Y105.901
G0 X120.128 Y106.054
G0 X120.251 Y117.902
;TYPE:SKIN
G1 F1800 X120.719 Y117.434 E81.29673
G0 F5400 X120.128 Y106.054
G0 X111.476 Y105.982
G0 X111.476 Y106.312
;TYPE:SKIN
G1 F1800 X111.522 Y106.266 E81.29803
G0 F5400 X111.522 Y105.682
G0 X102.17 Y105.352
G0 X102.1 Y105.282
;TIME_ELAPSED:33.049252
;LAYER:2
G0 F7200 X102.1 Y105.282 Z0.5
;TYPE:WALL-INNER
G1 F3600 X120.9 Y105.282 E82.05003
G1 X120.9 Y118.082 E82.56203
G1 X102.1 Y118.082 E83.31403
G1 X102.1 Y105.282 E83.82603
G0 F7200 X102.17 Y105.352
G0 X102.83 Y106.012
G0 X102.9 Y106.082
G1 F3600 X102.9 Y117.282 E84.27403
G1 X120.1 Y117.282 E84.96203
G1 X120.1 Y106.082 E85.41003
G1 X102.9 Y106.082 E86.09803
G0 F7200 X103.3 Y106.482
;TYPE:WALL-OUTER
G1 F1800 X103.3 Y116.882 E86.51403
G1 X111.282 Y116.882 E86.83331
G1 X111.282 Y116.834 E86.83523
G1 X111.718 Y116.834 E86.85267
G1 X111.718 Y116.882 E86.85459
G1 X119.7 Y116.882 E87.17387
G1 X119.7 Y106.482 E87.58987
G1 X111.718 Y106.482 E87.90915
G1 X111.718 Y106.53 E87.91107
G1 X111.282 Y106.53 E87.92851
G1 X111.282 Y106.482 E87.93043
G1 X103.3 Y106.482 E88.24971
G0 F7200 X103.3 Y106.682
G0 X102.8 Y106.682
G0 X102.17 Y105.352
G0 X101.7 Y104.882
G1 F1800 X121.3 Y104.882 E89.03371
G1 X121.3 Y118.482 E89.57771
G1 X101.7 Y118.482 E90.36171
G1 X101.7 Y104.882 E90.90571
G0 F7200 X101.9 Y104.882
G0 X102.17 Y105.352
G0 X102.279 Y105.673
;TYPE:SKIN
G1 F1800 X102.719 Y106.114 E90.93063
G0 F7200 X102.853 Y105.681
G1 F1800 X103.418 Y105.681 E90.95549
G1 X103.984 Y105.681 E90.98039
G1 X104.55 Y105.681 E91.0053
G1 X105.115 Y105.681 E91.03016
G1 X105.681 Y105.681 E91.05506
G1 X106.247 Y105.681 E91.07997
G1 X106.812 Y105.681 E91.10483
G1 X107.378 Y105.681 E91.12973
G1 X107.944 Y105.681 E91.15463
G1 X108.509 Y105.681 E91.17949
G1 X109.075 Y105.681 E91.2044
G1 X109.641 Y105.681 E91.2293
G1 X110.206 Y105.681 E91.25416
G1 X110.772 Y105.681 E91.27907
G1 X111.338 Y105.681 E91.30397
G1 X111.903 Y105.681 E91.32883
G1 X112.469 Y105.681 E91.35373
G1 X113.035 Y105.681 E91.37864
G1 X113.601 Y105.681 E91.40354
G1 X114.166 Y105.681 E91.4284
G1 X114.732 Y105.681 E91.45331
G1 X115.298 Y105.681 E91.47821
G1 X115.863 Y105.681 E91.50307
G1 X116.429 Y105.681 E91.52797
G1 X116.995 Y105.681 E91.55288
G1 X117.56 Y105.681 E91.57774
G1 X118.126 Y105.681 E91.60264
G1 X118.692 Y105.681 E91.62755
G1 X119.257 Y105.681 E91.65241
G1 X119.823 Y105.681 E91.67731
G0 F7200 X120.498 Y106.356
G1 F1800 X120.498 Y106.922 E91.70227
G1 X120.498 Y107.488 E91.72723
G1 X120.498 Y108.053 E91.75215
G1 X120.498 Y108.619 E91.77711
G1 X120.498 Y109.185 E91.80207
G1 X120.498 Y109.75 E91.82698
G1 X120.498 Y110.316 E91.85195
G1 X120.498 Y110.882 E91.87691
