;FLAVOR:UltiGCode
;TIME:1281
;MATERIAL:950
;MATERIAL2:0
;NOZZLE_DIAMETER:0.4
;Generated with Cura_SteamEngine 2.6.1

;LAYER_COUNT:218
;LAYER:0
M107
G0 F3600 X105.323 Y100.566 Z0.3
;TYPE:SKIRT
G1 F1800 X105.778 Y100.186 E0.07114
G1 X106.281 Y99.872 E0.14229
G1 X106.821 Y99.627 E0.21345
G1 X107.39 Y99.458 E0.28468
G1 X107.975 Y99.367 E0.35572
G1 X108.36 Y99.35 E0.40197
G1 X114.642 Y99.351 E1.15581
G1 X115.233 Y99.391 E1.22689
G1 X115.814 Y99.51 E1.29806
G1 X116.374 Y99.707 E1.36929
G1 X116.902 Y99.976 E1.4404
G1 X117.389 Y100.314 E1.51154
G1 X117.826 Y100.715 E1.58271
G1 X118.205 Y101.171 E1.65386
G1 X118.52 Y101.674 E1.72508
G1 X118.764 Y102.214 E1.79619
G1 X118.933 Y102.782 E1.8673
G1 X119.024 Y103.368 E1.93847
G1 X119.041 Y103.751 E1.98447
G1 X119.041 Y119.732 E3.90219
G1 X119.001 Y120.324 E3.97339
G1 X118.882 Y120.904 E4.04444
G1 X118.686 Y121.464 E4.11564
G1 X118.416 Y121.992 E4.18681
G1 X118.078 Y122.479 E4.25794
G1 X117.677 Y122.916 E4.32911
G1 X117.222 Y123.296 E4.40025
G1 X116.719 Y123.61 E4.47141
G1 X116.179 Y123.855 E4.54256
G1 X115.61 Y124.024 E4.61379
G1 X115.025 Y124.115 E4.68484
G1 X114.641 Y124.132 E4.73096
G1 X108.359 Y124.132 E5.4848
G1 X107.767 Y124.092 E5.556
G1 X107.187 Y123.973 E5.62705
G1 X106.627 Y123.777 E5.69825
G1 X106.099 Y123.507 E5.76941
G1 X105.612 Y123.169 E5.84055
G1 X105.175 Y122.768 E5.91172
G1 X104.795 Y122.313 E5.98286
G1 X104.481 Y121.81 E6.05402
G1 X104.236 Y121.27 E6.12517
G1 X104.067 Y120.701 E6.1964
G1 X103.976 Y120.116 E6.26745
G1 X103.959 Y119.732 E6.31357
G1 X103.959 Y103.75 E8.23141
G1 X103.999 Y103.158 E8.30261
G1 X104.118 Y102.578 E8.37366
G1 X104.314 Y102.018 E8.44486
G1 X104.584 Y101.49 E8.51602
G1 X104.922 Y101.003 E8.58716
G1 X105.323 Y100.566 E8.65833
G0 F3600 X105.715 Y100.748
G1 F1800 X106.165 Y100.406 E8.72616
G1 X106.658 Y100.13 E8.79396
G1 X107.186 Y99.926 E8.86188
G1 X107.736 Y99.799 E8.92962
G1 X108.36 Y99.75 E9.00473
G1 X114.642 Y99.751 E9.75857
G1 X115.206 Y99.791 E9.82642
G1 X115.758 Y99.91 E9.89418
G1 X116.289 Y100.106 E9.9621
G1 X116.786 Y100.375 E10.02992
G1 X117.24 Y100.711 E10.0977
G1 X117.643 Y101.108 E10.16558
G1 X117.986 Y101.557 E10.23338
G1 X118.262 Y102.051 E10.30129
G1 X118.465 Y102.578 E10.36906
G1 X118.592 Y103.129 E10.43691
G1 X118.641 Y103.751 E10.51178
G1 X118.641 Y119.732 E12.4295
G1 X118.601 Y120.296 E12.49735
G1 X118.482 Y120.849 E12.56523
G1 X118.286 Y121.379 E12.63304
G1 X118.018 Y121.876 E12.7008
G1 X117.682 Y122.331 E12.76867
G1 X117.285 Y122.734 E12.83656
G1 X116.835 Y123.076 E12.90438
G1 X116.342 Y123.352 E12.97218
G1 X115.814 Y123.556 E13.04011
G1 X115.264 Y123.683 E13.10784
G1 X114.641 Y123.732 E13.18283
G1 X108.359 Y123.732 E13.93667
G1 X107.795 Y123.692 E14.00452
G1 X107.242 Y123.573 E14.0724
G1 X106.712 Y123.377 E14.14021
G1 X106.215 Y123.109 E14.20797
G1 X105.76 Y122.773 E14.27584
G1 X105.357 Y122.376 E14.34373
G1 X105.015 Y121.926 E14.41155
G1 X104.739 Y121.433 E14.47935
G1 X104.535 Y120.905 E14.54728
G1 X104.408 Y120.355 E14.61502
G1 X104.359 Y119.732 E14.69001
G1 X104.359 Y103.75 E16.60785
G1 X104.399 Y103.186 E16.6757
G1 X104.518 Y102.633 E16.74358
G1 X104.714 Y102.103 E16.81139
G1 X104.982 Y101.606 E16.87914
G1 X105.318 Y101.151 E16.94702
G1 X105.715 Y100.748 E17.0149
G0 F3600 X106.106 Y100.942
G1 F1800 X106.548 Y100.639 E17.07921
G1 X107.031 Y100.404 E17.14366
G1 X107.542 Y100.244 E17.20792
G1 X108.072 Y100.161 E17.27229
G1 X108.36 Y100.15 E17.30688
G1 X114.642 Y100.151 E18.06072
G1 X115.176 Y100.191 E18.12498
G1 X115.699 Y100.31 E18.18934
G1 X116.199 Y100.505 E18.25375
G1 X116.664 Y100.773 E18.31815
G1 X117.084 Y101.106 E18.38247
G1 X117.449 Y101.499 E18.44683
G1 X117.753 Y101.941 E18.5112
G1 X117.987 Y102.423 E18.5755
G1 X118.147 Y102.935 E18.63987
G1 X118.23 Y103.465 E18.70425
G1 X118.241 Y103.751 E18.73859
G1 X118.241 Y119.732 E20.65631
G1 X118.201 Y120.267 E20.72069
G1 X118.082 Y120.79 E20.78505
G1 X117.887 Y121.289 E20.84934
G1 X117.619 Y121.754 E20.91375
G1 X117.286 Y122.174 E20.97807
G1 X116.894 Y122.54 E21.04242
G1 X116.452 Y122.843 E21.10673
G1 X115.969 Y123.078 E21.17119
G1 X115.458 Y123.238 E21.23544
G1 X114.928 Y123.321 E21.29982
G1 X114.641 Y123.332 E21.33428
G1 X108.359 Y123.332 E22.08812
G1 X107.824 Y123.292 E22.1525
G1 X107.301 Y123.173 E22.21687
G1 X106.802 Y122.978 E22.28116
G1 X106.337 Y122.71 E22.34556
G1 X105.917 Y122.377 E22.40988
G1 X105.551 Y121.985 E22.47424
G1 X105.248 Y121.543 E22.53854
G1 X105.013 Y121.06 E22.603
G1 X104.853 Y120.549 E22.66725
G1 X104.77 Y120.019 E22.73163
G1 X104.759 Y119.732 E22.76609
G1 X104.759 Y103.75 E24.68393
G1 X104.799 Y103.215 E24.74831
G1 X104.918 Y102.692 E24.81268
G1 X105.113 Y102.193 E24.87697
G1 X105.381 Y101.728 E24.94137
G1 X105.714 Y101.308 E25.00569
G1 X106.106 Y100.942 E25.07005
G0 F3600 X106.495 Y101.149
G1 F1800 X106.928 Y100.888 E25.13072
G1 X107.396 Y100.698 E25.19133
G1 X107.889 Y100.585 E25.25202
G1 X108.36 Y100.55 E25.3087
G1 X114.642 Y100.551 E26.06254
G1 X115.145 Y100.591 E26.12309
G1 X115.637 Y100.71 E26.18383
G1 X116.103 Y100.905 E26.24445
G1 X116.533 Y101.171 E26.30512
G1 X116.916 Y101.501 E26.36579
G1 X117.242 Y101.887 E26.42642
G1 X117.503 Y102.32 E26.48709
G1 X117.693 Y102.789 E26.54781
G1 X117.806 Y103.282 E26.60851
G1 X117.841 Y103.751 E26.66494
G1 X117.841 Y119.732 E28.58266
G1 X117.801 Y120.236 E28.64333
G1 X117.682 Y120.727 E28.70396
G1 X117.488 Y121.194 E28.76464
G1 X117.222 Y121.624 E28.82532
G1 X116.892 Y122.007 E28.88598
G1 X116.505 Y122.333 E28.94671
G1 X116.072 Y122.594 E29.00738
G1 X115.604 Y122.784 E29.06799
G1 X115.111 Y122.897 E29.12868
G1 X114.641 Y122.932 E29.18524
G1 X108.359 Y122.932 E29.93908
G1 X107.855 Y122.892 E29.99975
G1 X107.364 Y122.773 E30.06037
G1 X106.897 Y122.579 E30.12106
G1 X106.467 Y122.313 E30.18173
G1 X106.084 Y121.983 E30.2424
G1 X105.758 Y121.596 E30.30312
G1 X105.497 Y121.163 E30.36379
G1 X105.307 Y120.695 E30.4244
G1 X105.194 Y120.202 E30.48509
G1 X105.159 Y119.732 E30.54165
G1 X105.159 Y103.75 E32.45949
G1 X105.199 Y103.246 E32.52016
G1 X105.318 Y102.755 E32.58079
G1 X105.512 Y102.288 E32.64147
G1 X105.778 Y101.858 E32.70214
G1 X106.108 Y101.475 E32.76281
G1 X106.495 Y101.149 E32.82353
G10
G0 F3600 X108.964 Y103.076
G0 X108.964 Y104.355
G0 X109.02 Y104.411
G0 X108.95 Y104.341
;TYPE:WALL-INNER
G11
G1 F1800 X114.05 Y104.341 E33.43553
G1 X114.05 Y119.141 E35.21153
G1 X108.95 Y119.141 E35.82353
G1 X108.95 Y104.341 E37.59953
G0 F3600 X108.55 Y103.941
;TYPE:WALL-OUTER
G1 F1800 X114.45 Y103.941 E38.30753
G1 X114.45 Y119.541 E40.17953
G1 X108.55 Y119.541 E40.88753
G1 X108.55 Y103.941 E42.75953
G0 F3600 X108.75 Y103.941
G0 X109.129 Y104.604
;TYPE:SKIN
G1 F1800 X113.869 Y109.344 E43.56394
G1 X113.939 Y109.414
G0 F3600 X113.869 Y109.909
G1 F1800 X109.129 Y105.17 E44.36826
G1 X109.059 Y105.1
G0 F3600 X109.129 Y105.735
G1 F1800 X113.869 Y110.475 E45.17266
G1 X113.939 Y110.545
G0 F3600 X113.869 Y111.041
G1 F1800 X109.129 Y106.301 E45.97707
G1 X109.059 Y106.231
G0 F3600 X109.129 Y106.867
G1 F1800 X113.869 Y111.606 E46.78139
G1 X113.939 Y111.676
G0 F3600 X113.87 Y112.173
G1 F1800 X109.129 Y107.432 E47.58596
G1 X109.059 Y107.362
G0 F3600 X109.129 Y107.998
G1 F1800 X113.87 Y112.738 E48.39045
G1 X113.94 Y112.808
G0 F3600 X113.87 Y113.304
G1 F1800 X109.129 Y108.564 E49.19494
G1 X109.059 Y108.494
G0 F3600 X109.129 Y109.129
G1 F1800 X113.87 Y113.87 E49.99951
G1 X113.94 Y113.94
G0 F3600 X113.87 Y114.436
G1 F1800 X109.129 Y109.695 E50.80409
G1 X109.059 Y109.625
G0 F3600 X109.129 Y110.261
G1 F1800 X113.87 Y115.001 E51.60858
G1 X113.94 Y115.071
G0 F3600 X113.87 Y115.567
G1 F1800 X109.129 Y110.826 E52.41315
G1 X109.059 Y110.756
G0 F3600 X109.129 Y111.392
G1 F1800 X113.87 Y116.133 E53.21773
G1 X113.94 Y116.203
G0 F3600 X113.87 Y116.698
G1 F1800 X109.129 Y111.958 E54.02222
G1 X109.059 Y111.888
G0 F3600 X109.129 Y112.524
G1 F1800 X113.87 Y117.264 E54.82671
G1 X113.94 Y117.334
G0 F3600 X113.87 Y117.83
G1 F1800 X109.129 Y113.089 E55.63128
G1 X109.059 Y113.019
G0 F3600 X109.129 Y113.655
G1 F1800 X113.87 Y118.395 E56.43577
G1 X113.94 Y118.465
G0 F3600 X113.868 Y118.96
G1 F1800 X109.129 Y114.221 E57.24
G1 X109.059 Y114.151
G0 F3600 X109.129 Y114.786
G1 F1800 X113.303 Y118.96 E57.94836
G1 X113.373 Y119.03
G0 F3600 X112.737 Y118.96
G1 F1800 X109.129 Y115.352 E58.56065
G1 X109.059 Y115.282
G0 F3600 X109.129 Y115.918
G1 F1800 X112.171 Y118.96 E59.0769
G1 X112.241 Y119.03
G0 F3600 X111.606 Y118.96
G1 F1800 X109.129 Y116.483 E59.49726
G1 X109.059 Y116.413
G0 F3600 X109.129 Y117.049
G1 F1800 X111.04 Y118.96 E59.82157
G1 X111.11 Y119.03
G0 F3600 X110.474 Y118.96
G1 F1800 X109.129 Y117.615 E60.04982
G1 X109.059 Y117.545
G0 F3600 X109.129 Y118.18
G1 F1800 X109.909 Y118.96 E60.18219
G1 X109.979 Y119.03
G0 F3600 X109.343 Y118.96
G1 F1800 X109.129 Y118.746 E60.21851
G0 F3600 X113.869 Y108.778
G1 F1800 X109.612 Y104.52 E60.94103
G1 X109.542 Y104.45
G0 F3600 X110.177 Y104.52
G1 F1800 X113.869 Y108.212 E61.56758
G1 X113.939 Y108.282
G0 F3600 X113.869 Y107.647
G1 F1800 X110.743 Y104.52 E62.09817
G1 X110.673 Y104.45
G0 F3600 X111.309 Y104.52
G1 F1800 X113.869 Y107.081 E62.5327
G1 X113.939 Y107.151
G0 F3600 X113.869 Y106.515
G1 F1800 X111.874 Y104.52 E62.87126
G1 X111.804 Y104.45
G0 F3600 X112.44 Y104.52
G1 F1800 X113.869 Y105.95 E63.11386
G1 X113.939 Y106.02
G0 F3600 X113.869 Y105.384
G1 F1800 X113.006 Y104.52 E63.2604
G1 X112.936 Y104.45
G0 F3600 X113.571 Y104.52
G1 F1800 X113.869 Y104.818 E63.31097
G0 F3600 X113.65 Y104.818
G0 X109.02 Y104.411
G0 X108.95 Y104.341
;TIME_ELAPSED:21.761952
;LAYER:1
M106 S255
G0 F5400 X108.95 Y104.341 Z0.4
;TYPE:WALL-INNER
G1 F2700 X114.05 Y104.341 E63.51497
G1 X114.05 Y119.141 E64.10697
G1 X108.95 Y119.141 E64.31097
G1 X108.95 Y104.341 E64.90297
G0 F5400 X108.55 Y103.941
;TYPE:WALL-OUTER
G1 F1800 X114.45 Y103.941 E65.13897
G1 X114.45 Y119.541 E65.76297
G1 X108.55 Y119.541 E65.99897
G1 X108.55 Y103.941 E66.62297
G0 F5400 X108.75 Y103.941
G0 X109.02 Y104.411
G0 X109.308 Y104.52
;TYPE:SKIN
G1 F1800 X109.129 Y104.699 E66.6331
G0 F5400 X109.129 Y105.264
G1 F1800 X109.873 Y104.52 E66.67518
G1 X109.943 Y104.45
G0 F5400 X110.439 Y104.52
G1 F1800 X109.129 Y105.83 E66.74929
G1 X109.059 Y105.9
G0 F5400 X109.129 Y106.396
G1 F1800 X111.005 Y104.52 E66.85541
G1 X111.075 Y104.45
G0 F5400 X111.57 Y104.52
G1 F1800 X109.129 Y106.961 E66.99349
G1 X109.059 Y107.031
G0 F5400 X109.129 Y107.527
G1 F1800 X112.136 Y104.52 E67.16359
G1 X112.206 Y104.45
G0 F5400 X112.702 Y104.52
G1 F1800 X109.129 Y108.093 E67.36571
G1 X109.059 Y108.163
G0 F5400 X109.129 Y108.658
G1 F1800 X113.267 Y104.52 E67.59979
G1 X113.337 Y104.45
G0 F5400 X113.833 Y104.52
G1 F1800 X109.129 Y109.224 E67.86589
G1 X109.059 Y109.294
G0 F5400 X109.129 Y109.79
G1 F1800 X113.868 Y105.051 E68.13397
G1 X113.938 Y104.981
G0 F5400 X113.868 Y105.617
G1 F1800 X109.129 Y110.356 E68.40205
G1 X109.059 Y110.426
G0 F5400 X109.129 Y110.921
G1 F1800 X113.868 Y106.182 E68.67013
G1 X113.938 Y106.112
G0 F5400 X113.868 Y106.748
G1 F1800 X109.129 Y111.487 E68.93821
G1 X109.059 Y111.557
G0 F5400 X109.129 Y112.053
G1 F1800 X113.868 Y107.314 E69.20628
G1 X113.938 Y107.244
G0 F5400 X113.868 Y107.879
G1 F1800 X109.129 Y112.618 E69.47436
G1 X109.059 Y112.688
G0 F5400 X109.129 Y113.184
G1 F1800 X113.868 Y108.445 E69.74244
G1 X113.938 Y108.375
G0 F5400 X113.868 Y109.011
G1 F1800 X109.129 Y113.75 E70.01052
G1 X109.059 Y113.82
G0 F5400 X109.129 Y114.315
G1 F1800 X113.868 Y109.576 E70.2786
G1 X113.938 Y109.506
G0 F5400 X113.868 Y110.142
G1 F1800 X109.129 Y114.881 E70.54668
G1 X109.059 Y114.951
G0 F5400 X109.129 Y115.447
G1 F1800 X113.868 Y110.708 E70.81475
G1 X113.938 Y110.638
G0 F5400 X113.868 Y111.273
G1 F1800 X109.129 Y116.012 E71.08283
G1 X109.059 Y116.082
G0 F5400 X109.129 Y116.578
G1 F1800 X113.869 Y111.838 E71.35097
G1 X113.939 Y111.768
G0 F5400 X113.869 Y112.404
G1 F1800 X109.129 Y117.144 E71.6191
G1 X109.059 Y117.214
G0 F5400 X109.129 Y117.709
G1 F1800 X113.869 Y112.97 E71.88721
G1 X113.939 Y112.9
G0 F5400 X113.869 Y113.535
G1 F1800 X109.129 Y118.275 E72.15534
G1 X109.059 Y118.345
G0 F5400 X109.129 Y118.841
G1 F1800 X113.869 Y114.101 E72.42348
G1 X113.939 Y114.031
G0 F5400 X113.869 Y114.667
G1 F1800 X109.576 Y118.96 E72.66633
G1 X109.506 Y119.03
G0 F5400 X110.142 Y118.96
G1 F1800 X113.869 Y115.232 E72.87719
G1 X113.939 Y115.162
G0 F5400 X113.869 Y115.798
G1 F1800 X110.708 Y118.96 E73.05603
G1 X110.638 Y119.03
G0 F5400 X111.273 Y118.96
G1 F1800 X113.869 Y116.364 E73.20288
G1 X113.939 Y116.294
G0 F5400 X113.869 Y116.93
G1 F1800 X111.839 Y118.96 E73.31771
G1 X111.769 Y119.03
G0 F5400 X112.405 Y118.96
G1 F1800 X113.869 Y117.495 E73.40056
G1 X113.939 Y117.425
G0 F5400 X113.869 Y118.061
G1 F1800 X112.97 Y118.96 E73.45141
G1 X112.9 Y119.03
G0 F5400 X113.536 Y118.96
G1 F1800 X113.869 Y118.627 E73.47025
G0 F5400 X113.65 Y118.627
G0 X109.02 Y104.411
G0 X108.95 Y104.341
;TIME_ELAPSED:31.044828
;LAYER:2
G0 F7200 X108.95 Y104.341 Z0.5
;TYPE:WALL-INNER
G1 F3600 X114.05 Y104.341 E73.67425
G1 X114.05 Y119.141 E74.26625
G1 X108.95 Y119.141 E74.47025
G1 X108.95 Y104.341 E75.06225
G0 F7200 X108.55 Y103.941
;TYPE:WALL-OUTER
G1 F1800 X114.45 Y103.941 E75.29825
G1 X114.45 Y119.541 E75.92225
G1 X108.55 Y119.541 E76.15825
G1 X108.55 Y103.941 E76.78225
G0 F7200 X108.75 Y103.941
G0 X109.129 Y104.604
;TYPE:SKIN
G1 F1800 X113.869 Y109.344 E77.05039
G1 X113.939 Y109.414
G0 F7200 X113.869 Y109.909
G1 F1800 X109.129 Y105.17 E77.31849
G1 X109.059 Y105.1
G0 F7200 X109.129 Y105.735
G1 F1800 X113.869 Y110.475 E77.58663
G1 X113.939 Y110.545
G0 F7200 X113.869 Y111.041
G1 F1800 X109.129 Y106.301 E77.85476
G1 X109.059 Y106.231
G0 F7200 X109.129 Y106.867
G1 F1800 X113.869 Y111.606 E78.12287
G1 X113.939 Y111.676
G0 F7200 X113.87 Y112.173
G1 F1800 X109.129 Y107.432 E78.39106
G1 X109.059 Y107.362
G0 F7200 X109.129 Y107.998
G1 F1800 X113.87 Y112.738 E78.65922
G1 X113.94 Y112.808
G0 F7200 X113.87 Y113.304
G1 F1800 X109.129 Y108.564 E78.92739
G1 X109.059 Y108.494
G0 F7200 X109.129 Y109.129
G1 F1800 X113.87 Y113.87 E79.19558
G1 X113.94 Y113.94
G0 F7200 X113.87 Y114.436
G1 F1800 X109.129 Y109.695 E79.46377
G1 X109.059 Y109.625
G0 F7200 X109.129 Y110.261
G1 F1800 X113.87 Y115.001 E79.73193
G1 X113.94 Y115.071
G0 F7200 X113.87 Y115.567
G1 F1800 X109.129 Y110.826 E80.00013
G1 X109.059 Y110.756
G0 F7200 X109.129 Y111.392
G1 F1800 X113.87 Y116.133 E80.26832
G1 X113.94 Y116.203
G0 F7200 X113.87 Y116.698
G1 F1800 X109.129 Y111.958 E80.53648
G1 X109.059 Y111.888
G0 F7200 X109.129 Y112.524
G1 F1800 X113.87 Y117.264 E80.80464
G1 X113.94 Y117.334
G0 F7200 X113.87 Y117.83
G1 F1800 X109.129 Y113.089 E81.07283
G1 X109.059 Y113.019
G0 F7200 X109.129 Y113.655
G1 F1800 X113.87 Y118.395 E81.341
G1 X113.94 Y118.465
G0 F7200 X113.868 Y118.96
G1 F1800 X109.129 Y114.221 E81.60908
G1 X109.059 Y114.151
G0 F7200 X109.129 Y114.786
G1 F1800 X113.303 Y118.96 E81.84519
G1 X113.373 Y119.03
G0 F7200 X112.737 Y118.96
G1 F1800 X109.129 Y115.352 E82.04929
G1 X109.059 Y115.282
G0 F7200 X109.129 Y115.918
G1 F1800 X112.171 Y118.96 E82.22137
G1 X112.241 Y119.03
G0 F7200 X111.606 Y118.96
G1 F1800 X109.129 Y116.483 E82.36149
G1 X109.059 Y116.413
G0 F7200 X109.129 Y117.049
G1 F1800 X111.04 Y118.96 E82.4696
G1 X111.11 Y119.03
G0 F7200 X110.474 Y118.96
G1 F1800 X109.129 Y117.615 E82.54568
G1 X109.059 Y117.545
G0 F7200 X109.129 Y118.18
G1 F1800 X109.909 Y118.96 E82.5898
G1 X109.979 Y119.03
G0 F7200 X109.343 Y118.96
G1 F1800 X109.129 Y118.746 E82.60191
G0 F7200 X113.869 Y108.778
G1 F1800 X109.612 Y104.52 E82.84275
G1 X109.542 Y104.45
G0 F7200 X110.177 Y104.52
G1 F1800 X113.869 Y108.212 E83.0516
G1 X113.939 Y108.282
G0 F7200 X113.869 Y107.647
G1 F1800 X110.743 Y104.52 E83.22846
G1 X110.673 Y104.45
G0 F7200 X111.309 Y104.52
G1 F1800 X113.869 Y107.081 E83.37331
G1 X113.939 Y107.151
G0 F7200 X113.869 Y106.515
G1 F1800 X111.874 Y104.52 E83.48616
G1 X111.804 Y104.45
G0 F7200 X112.44 Y104.52
G1 F1800 X113.869 Y105.95 E83.56703
G1 X113.939 Y106.02
G0 F7200 X113.869 Y105.384
G1 F1800 X113.006 Y104.52 E83.61587
G1 X112.936 Y104.45
G0 F7200 X113.571 Y104.52
G1 F1800 X113.869 Y104.818 E83.63273
G0 F7200 X113.65 Y104.818
G0 X109.02 Y104.411
G0 X108.95 Y104.341
